; generated by PrusaSlicer 2.6.0+win64 on 2023-09-10 at 06:02:37 UTC


;
;
; 

; external perimeters extrusion width = 0.45mm
; perimeters extrusion width = 0.45mm
; infill extrusion width = 0.45mm
; solid infill extrusion width = 0.45mm
; top infill extrusion width = 0.40mm
; first layer extrusion width = 0.42mm

M73 P0 R154
M73 Q0 S156
M201 X1000 Y1000 Z200 E5000 ; sets maximum accelerations, mm/sec^2
M203 X200 Y200 Z12 E120 ; sets maximum feedrates, mm / sec
M204 S1250 T1250 ; sets acceleration (S) and retract acceleration (R), mm/sec^2
M205 X8.00 Y8.00 Z0.40 E4.50 ; sets the jerk limits, mm/sec
M205 S0 T0 ; sets the minimum extruding and travel feed rate, mm/sec
;TYPE:Custom
M862.3 P "MK3S" ; printer model check
M862.1 P0.4 ; nozzle diameter check
M115 U3.11.0 ; tell printer latest fw version
G90 ; use absolute coordinates
M83 ; extruder relative mode
M104 S215 ; set extruder temp
M140 S60 ; set bed temp
M190 S60 ; wait for bed temp
M109 S215 ; wait for extruder temp
G28 W ; home all without mesh bed level
G80 ; mesh bed leveling

G1 Z0.2 F720
G1 Y-3 F1000 ; go outside print area
G92 E0
G1 X60 E9 F1000 ; intro line
G1 X100 E12.5 F1000 ; intro line

G92 E0
M221 S95

; Don't change E values below. Excessive value can damage the printer.
M907 E430 ; set extruder motor current
G21 ; set units to millimeters
G90 ; use absolute coordinates
M83 ; use relative distances for extrusion
M900 K0.05 ; Filament gcode LA 1.5
M900 K30 ; Filament gcode LA 1.0
M107
;LAYER_CHANGE
;Z:0.2
;HEIGHT:0.2
;BEFORE_LAYER_CHANGE
G92 E0.0
;0.2


M73 P0 R153
G1 E-.8 F2100
G1 Z.4 F720
;AFTER_LAYER_CHANGE
;0.2
G1 X75.015 Y34.465 F10800
G1 Z.2 F720
G1 E.8 F2100
M204 S800
;TYPE:Skirt/Brim
;WIDTH:0.42
G1 F1200
G1 X76.06 Y33.588 E.04277
G1 X77 Y33.394 E.03009
G1 X173 Y33.394 E3.01001
G1 X174.307 Y33.786 E.04278
G1 X175.183 Y34.832 E.04278
G1 X175.377 Y35.772 E.03009
G1 X175.377 Y174.228 E4.34119
G1 X174.985 Y175.535 E.04278
G1 X173.94 Y176.412 E.04277
G1 X173 Y176.606 E.03009
G1 X77 Y176.606 E3.01001
G1 X75.693 Y176.214 E.04278
G1 X74.817 Y175.168 E.04278
G1 X74.623 Y174.228 E.03009
G1 X74.623 Y35.772 E4.34119
G1 X74.997 Y34.522 E.04091
M204 S1000
; printing object LeftBot.stl id:0 copy 0
;WIPE_START
M73 Q0 S155
G1 F8640
G1 X76.06 Y33.588 E-.32674
G1 X77 Y33.394 E-.22162
G1 X78.09 Y33.394 E-.25164
;WIPE_END
G1 Z.6 F720
G1 X93.235 Y50.717 F10800
G1 Z.2 F720
G1 E.8 F2100
M204 S800
;TYPE:Perimeter
;WIDTH:0.419999
G1 F1200
G1 X103.721 Y50.713 E.32878
G1 X103.995 Y50.783 E.00887
G1 X104.179 Y50.946 E.00771
G1 X104.278 Y51.178 E.00791
G1 X104.287 Y158.721 E3.37193
G1 X104.218 Y158.992 E.00877
G1 X104.017 Y159.204 E.00916
G1 X103.78 Y159.284 E.00784
G1 X93.279 Y159.287 E.32925
G1 X93.002 Y159.215 E.00897
G1 X92.81 Y159.038 E.00819
G1 X92.714 Y158.763 E.00913
G1 X92.713 Y51.279 E3.37008
G1 X92.764 Y51.045 E.00751
G1 X92.923 Y50.839 E.00816
G1 X93.176 Y50.724 E.00871
M204 S1000
G1 X93.279 Y51.09 F10800
M204 S800
;TYPE:External perimeter
G1 F1200
G1 X103.721 Y51.09 E.3274
G1 X103.861 Y51.152 E.0048
G1 X103.91 Y51.279 E.00427
G1 X103.91 Y158.721 E3.36876
G1 X103.838 Y158.87 E.00519
G1 X103.721 Y158.91 E.00388
G1 X93.279 Y158.91 E.3274
G1 X93.137 Y158.846 E.00488
G1 X93.09 Y158.721 E.00419
G1 X93.09 Y51.279 E3.36876
G1 X93.16 Y51.132 E.0051
G1 X93.222 Y51.11 E.00206
M204 S1000
G1 X93.382 Y50.704 F10800
;WIPE_START
G1 F8640
G1 X96.687 Y51.103 E-.8
;WIPE_END
G1 Z.6 F720
G1 X111.199 Y50.733 F10800
G1 Z.2 F720
G1 E.8 F2100
M204 S800
;TYPE:Perimeter
G1 F1200
G1 X111.279 Y50.713 E.00259
G1 X121.721 Y50.713 E.3274
G1 X121.995 Y50.783 E.00887
G1 X122.179 Y50.946 E.00771
G1 X122.278 Y51.178 E.00791
G1 X122.287 Y158.721 E3.37193
G1 X122.218 Y158.992 E.00877
M73 P0 R152
G1 X122.017 Y159.204 E.00916
G1 X121.78 Y159.284 E.00784
G1 X111.279 Y159.287 E.32925
G1 X111.005 Y159.217 E.00887
G1 X110.821 Y159.054 E.00771
G1 X110.722 Y158.822 E.00791
G1 X110.713 Y51.279 E3.37193
G1 X110.722 Y51.178 E.00318
G1 X110.821 Y50.946 E.00791
G1 X111.005 Y50.783 E.00771
G1 X111.141 Y50.748 E.0044
M204 S1000
G1 X111.279 Y51.09 F10800
M204 S800
;TYPE:External perimeter
G1 F1200
G1 X121.721 Y51.09 E.3274
G1 X121.861 Y51.152 E.0048
G1 X121.91 Y51.279 E.00427
G1 X121.91 Y158.721 E3.36876
G1 X121.838 Y158.87 E.00519
G1 X121.721 Y158.91 E.00388
G1 X111.279 Y158.91 E.3274
G1 X111.139 Y158.848 E.0048
G1 X111.09 Y158.721 E.00427
G1 X111.09 Y51.279 E3.36876
G1 X111.093 Y51.245 E.00107
G1 X111.188 Y51.113 E.0051
G1 X111.22 Y51.105 E.00103
M204 S1000
G1 X111.394 Y50.707 F10800
;WIPE_START
G1 F8640
G1 X114.685 Y51.1 E-.8
;WIPE_END
G1 Z.6 F720
G1 X139.822 Y159.27 F10800
G1 Z.2 F720
G1 E.8 F2100
M204 S800
;TYPE:Perimeter
G1 F1200
G1 X139.721 Y159.287 E.00321
G1 X129.279 Y159.287 E.3274
G1 X129.005 Y159.217 E.00887
G1 X128.821 Y159.054 E.00771
G1 X128.722 Y158.822 E.00791
G1 X128.713 Y51.279 E3.37193
G1 X128.747 Y51.086 E.00614
G1 X128.896 Y50.862 E.00844
G1 X129.108 Y50.739 E.00768
G1 X129.279 Y50.713 E.00542
G1 X139.721 Y50.713 E.3274
G1 X139.995 Y50.783 E.00887
G1 X140.179 Y50.946 E.00771
G1 X140.278 Y51.178 E.00791
G1 X140.287 Y158.721 E3.37193
G1 X140.218 Y158.992 E.00877
M73 P1 R152
M73 Q0 S154
G1 X140.017 Y159.204 E.00916
G1 X139.879 Y159.25 E.00456
M204 S1000
G1 X139.721 Y158.91 F10800
M204 S800
;TYPE:External perimeter
G1 F1200
G1 X129.279 Y158.91 E.3274
G1 X129.139 Y158.848 E.0048
M73 Q1 S154
G1 X129.09 Y158.721 E.00427
G1 X129.09 Y51.279 E3.36876
G1 X129.101 Y51.214 E.00207
G1 X129.204 Y51.105 E.0047
G1 X129.279 Y51.09 E.0024
G1 X139.721 Y51.09 E.3274
G1 X139.861 Y51.152 E.0048
G1 X139.91 Y51.279 E.00427
G1 X139.91 Y158.721 E3.36876
G1 X139.838 Y158.87 E.00519
G1 X139.778 Y158.89 E.00198
M204 S1000
G1 X139.618 Y159.296 F10800
;WIPE_START
G1 F8640
G1 X136.313 Y158.897 E-.8
;WIPE_END
G1 Z.6 F720
G1 X158.283 Y51.232 F10800
G1 Z.2 F720
G1 E.8 F2100
M204 S800
;TYPE:Perimeter
G1 F1200
G1 X158.287 Y158.721 E3.37024
G1 X158.232 Y158.965 E.00784
G1 X158.053 Y159.179 E.00875
G1 X157.782 Y159.284 E.00911
G1 X157.721 Y159.287 E.00191
G1 X147.279 Y159.287 E.3274
G1 X147.005 Y159.217 E.00887
G1 X146.821 Y159.054 E.00771
G1 X146.722 Y158.822 E.00791
G1 X146.713 Y158.721 E.00318
G1 X146.722 Y51.178 E3.37193
G1 X146.821 Y50.946 E.00791
G1 X147.005 Y50.783 E.00771
G1 X147.279 Y50.713 E.00887
G1 X157.721 Y50.713 E.3274
G1 X157.955 Y50.763 E.0075
G1 X158.17 Y50.934 E.00861
G1 X158.275 Y51.173 E.00818
M204 S1000
G1 X157.91 Y51.279 F10800
M204 S800
;TYPE:External perimeter
G1 F1200
G1 X157.91 Y158.721 E3.36876
G1 X157.846 Y158.863 E.00488
M73 P1 R151
G1 X157.721 Y158.91 E.00419
G1 X147.279 Y158.91 E.3274
G1 X147.139 Y158.848 E.0048
G1 X147.09 Y158.721 E.00427
G1 X147.093 Y51.245 E3.36983
G1 X147.188 Y51.113 E.0051
G1 X147.279 Y51.09 E.00294
G1 X157.721 Y51.09 E.3274
G1 X157.859 Y51.149 E.00471
G1 X157.888 Y51.223 E.00249
M204 S1000
G1 X158.296 Y51.382 F10800
;WIPE_START
G1 F8640
G1 X157.889 Y54.688 E-.8
;WIPE_END
G1 Z.6 F720
G1 X85.022 Y172.904 F10800
G1 Z.2 F720
G1 E.8 F2100
M204 S800
;TYPE:Perimeter
G1 F1200
G1 X85.176 Y172.729 E.00731
G1 X85.438 Y172.299 E.01579
G1 X85.626 Y171.826 E.01596
G1 X85.815 Y170.908 E.02939
G1 X85.802 Y169.971 E.02938
G1 X85.627 Y169.174 E.02558
G1 X85.495 Y168.858 E.01074
G1 X85.182 Y168.213 E.02248
G1 X84.604 Y167.475 E.02939
G1 X83.882 Y166.878 E.02937
G1 X83.047 Y166.451 E.02941
G1 X82.141 Y166.213 E.02937
G1 X81.204 Y166.176 E.0294
G1 X80.282 Y166.34 E.02936
G1 X79.416 Y166.699 E.02939
G1 X78.647 Y167.236 E.02941
G1 X78.087 Y167.829 E.02557
G1 X77.781 Y168.274 E.01693
G1 X77.781 Y41.724 E3.96788
G1 X78.396 Y42.525 E.03166
G1 X79.118 Y43.122 E.02937
G1 X79.953 Y43.549 E.02941
G1 X80.859 Y43.787 E.02937
G1 X81.796 Y43.824 E.0294
G1 X82.718 Y43.66 E.02936
G1 X83.584 Y43.301 E.02939
G1 X84.352 Y42.764 E.02938
G1 X84.987 Y42.074 E.0294
G1 X85.459 Y41.264 E.02939
G1 X85.746 Y40.372 E.02938
G1 X85.834 Y39.439 E.02938
G1 X85.728 Y38.537 E.02848
G1 X85.581 Y38.044 E.01613
G1 X85.369 Y37.576 E.01611
G1 X85.024 Y37.098 E.01848
G1 X85.662 Y37.155 E.02008
G1 X86.169 Y37.162 E.0159
G1 X172.213 Y37.166 E2.69784
G1 X172.213 Y172.834 E4.25377
G1 X86.178 Y172.837 E2.69756
M73 Q1 S153
G1 X85.081 Y172.9 E.03445
M204 S1000
;WIPE_START
G1 F8640
G1 X85.176 Y172.729 E-.04517
G1 X85.438 Y172.299 E-.11627
G1 X85.626 Y171.826 E-.11753
G1 X85.815 Y170.908 E-.21641
G1 X85.802 Y169.971 E-.21638
G1 X85.72 Y169.598 E-.08824
;WIPE_END
G1 Z.6 F720
G1 X83.892 Y173.399 F10800
G1 Z.2 F720
G1 E.8 F2100
M204 S800
;TYPE:External perimeter
G1 F1200
G1 X84.788 Y172.604 E.03756
G1 X85.075 Y172.182 E.016
G1 X85.258 Y171.745 E.01485
G1 X85.438 Y170.908 E.02684
G1 X85.434 Y170.052 E.02684
G1 X85.258 Y169.255 E.02559
G1 X84.882 Y168.441 E.02811
G1 X84.36 Y167.762 E.02685
G1 X83.705 Y167.212 E.02682
G1 X82.947 Y166.814 E.02684
G1 X82.12 Y166.59 E.02686
G1 X81.265 Y166.548 E.02684
G1 X80.421 Y166.691 E.02684
G1 X79.627 Y167.012 E.02685
G1 X78.921 Y167.496 E.02684
G1 X78.409 Y168.037 E.02335
G1 X78.113 Y168.452 E.01598
G1 X77.942 Y168.792 E.01193
;WIDTH:0.441157
G1 X77.765 Y169.285 E.01735
G1 X77.674 Y170.139 E.02844
;WIDTH:0.425609
G1 X77.694 Y171.082 E.03001
;WIDTH:0.439454
G1 X77.767 Y171.715 E.02101
G1 X77.88 Y172.037 E.01125
;WIDTH:0.423727
G1 X78.142 Y172.523 E.01748
;WIDTH:0.419999
G1 X78.635 Y173.002 E.02155
G1 X79.119 Y173.41 E.01985
G1 X78.46 Y173.398 E.02067
G1 X77.974 Y173.278 E.0157
G1 X77.407 Y173.232 E.01784
G1 X77.395 Y172.325 E.02844
;WIDTH:0.439454
G1 X77.373 Y171.756 E.01878
G1 X77.304 Y170.897 E.02841
;WIDTH:0.419259
G1 X77.302 Y170.046 E.02663
;WIDTH:0.446688
G1 X77.377 Y169.172 E.02945
G1 X77.401 Y168.633 E.01811
;WIDTH:0.419999
G1 X77.41 Y42.366 E3.95901
G1 X77.397 Y41.304 E.0333
;WIDTH:0.441155
G1 X77.296 Y39.858 E.048
;WIDTH:0.425363
G1 X77.313 Y38.878 E.03117
G1 X77.394 Y37.776 E.03514
;WIDTH:0.419999
G1 X77.407 Y36.766 E.03167
G1 X77.999 Y36.715 E.01863
G1 X78.495 Y36.592 E.01602
G1 X79.12 Y36.59 E.0196
G1 X78.662 Y36.975 E.01876
G1 X78.17 Y37.442 E.02127
G1 X77.933 Y37.828 E.0142
;WIDTH:0.437802
G1 X77.763 Y38.307 E.01669
G1 X77.677 Y39.106 E.02639
;WIDTH:0.419258
G1 X77.676 Y39.918 E.02541
;WIDTH:0.441155
G1 X77.765 Y40.715 E.02656
G1 X77.908 Y41.135 E.01469
;WIDTH:0.419999
G1 X78.119 Y41.557 E.01479
G1 X78.64 Y42.238 E.02688
G1 X79.295 Y42.788 E.02682
G1 X80.053 Y43.186 E.02684
G1 X80.88 Y43.41 E.02686
G1 X81.735 Y43.452 E.02684
G1 X82.579 Y43.309 E.02684
G1 X83.373 Y42.988 E.02685
G1 X84.079 Y42.504 E.02684
G1 X84.664 Y41.88 E.02682
G1 X85.102 Y41.144 E.02685
G1 X85.371 Y40.331 E.02685
G1 X85.459 Y39.48 E.02682
G1 X85.371 Y38.669 E.02558
G1 X85.255 Y38.245 E.01378
G1 X85.09 Y37.846 E.01354
G1 X84.857 Y37.472 E.01382
G1 X84.532 Y37.137 E.01463
G1 X83.892 Y36.6 E.02619
G1 X84.18 Y36.588 E.00904
G1 X85.16 Y36.737 E.03108
G1 X85.666 Y36.778 E.01592
G1 X86.166 Y36.785 E.01568
G1 X172.59 Y36.789 E2.70976
G1 X172.59 Y45.311 E.2672
G1 X172.59 Y173.211 E4.01021
G1 X86.169 Y173.214 E2.70967
G1 X85.281 Y173.256 E.02787
G1 X84.185 Y173.412 E.03471
G1 X83.952 Y173.402 E.00731
M204 S1000
G1 X84.24 Y173.201 F10800
;WIPE_START
G1 F8640
G1 X84.788 Y172.604 E-.26686
G1 X85.075 Y172.182 E-.11784
G1 X85.258 Y171.745 E-.10939
G1 X85.438 Y170.908 E-.19768
G1 X85.436 Y170.439 E-.10823
;WIPE_END
G1 Z.6 F720
G1 X77.866 Y37.112 F10800
G1 Z.2 F720
G1 E.8 F2100
M204 S800
;TYPE:Perimeter
;WIDTH:0.53392
G1 F1200
G1 X77.805 Y37.112 E.00249
G1 X77.774 Y37.165 E.00251
G1 X77.805 Y37.218 E.00251
G1 X77.866 Y37.218 E.00249
G1 X77.897 Y37.165 E.00251
M204 S1000
;WIPE_START
G1 F8640
G1 X77.866 Y37.218 E-.01418
G1 X77.805 Y37.218 E-.01409
G1 X77.774 Y37.165 E-.01418
G1 X77.805 Y37.112 E-.01418
G1 X77.866 Y37.112 E-.01409
;WIPE_END
G1 E-.72928 F2100
G1 Z.6 F720
G1 X77.865 Y172.78 F10800
G1 Z.2 F720
M73 P1 R150
G1 E.8 F2100
M204 S800
;WIDTH:0.531434
G1 F1200
G1 X77.804 Y172.78 E.00248
G1 X77.773 Y172.833 E.00249
G1 X77.804 Y172.886 E.00249
G1 X77.865 Y172.886 E.00248
G1 X77.896 Y172.833 E.00249
M204 S1000
;WIPE_START
G1 F8640
G1 X77.865 Y172.886 E-.01418
G1 X77.804 Y172.886 E-.01409
G1 X77.773 Y172.833 E-.01418
G1 X77.804 Y172.78 E-.01418
G1 X77.865 Y172.78 E-.01409
;WIPE_END
G1 E-.72928 F2100
G1 Z.6 F720
G1 X172.1 Y38.043 F10800
G1 Z.2 F720
G1 E.8 F2100
M204 S800
;TYPE:Solid infill
;WIDTH:0.420636
G1 F1200
G1 X171.506 Y37.449 E.02638
G1 X170.972 Y37.449 E.01677
G1 X171.93 Y38.407 E.04255
G1 X171.93 Y38.941 E.01677
G1 X170.437 Y37.448 E.06631
G1 X169.903 Y37.448 E.01677
G1 X171.93 Y39.476 E.09005
G1 X171.93 Y40.01 E.01677
G1 X169.369 Y37.448 E.11377
G1 X168.835 Y37.448 E.01677
G1 X171.93 Y40.544 E.13749
G1 X171.93 Y41.078 E.01677
G1 X168.3 Y37.448 E.16123
G1 X167.766 Y37.448 E.01677
G1 X171.93 Y41.612 E.18495
G1 X171.93 Y42.146 E.01677
M73 P2 R150
G1 X167.232 Y37.448 E.20867
G1 X166.697 Y37.448 E.0168
M73 Q2 S153
G1 X171.93 Y42.681 E.23243
G1 X171.93 Y43.215 E.01677
G1 X166.163 Y37.448 E.25615
G1 X165.629 Y37.448 E.01677
G1 X171.93 Y43.749 E.27987
G1 X171.93 Y44.283 E.01677
G1 X165.095 Y37.448 E.30359
G1 X164.56 Y37.448 E.0168
G1 X171.93 Y44.817 E.32733
G1 X171.93 Y45.351 E.01677
G1 X164.026 Y37.447 E.35107
G1 X163.492 Y37.447 E.01677
G1 X171.93 Y45.886 E.37481
G1 X171.93 Y46.42 E.01677
G1 X162.958 Y37.447 E.39853
G1 X162.423 Y37.447 E.0168
G1 X171.93 Y46.954 E.42227
G1 X171.93 Y47.488 E.01677
G1 X161.889 Y37.447 E.44599
G1 X161.355 Y37.447 E.01677
G1 X171.93 Y48.022 E.4697
G1 X171.93 Y48.556 E.01677
G1 X160.821 Y37.447 E.49342
G1 X160.286 Y37.447 E.0168
G1 X171.93 Y49.091 E.51719
G1 X171.93 Y49.625 E.01677
G1 X159.752 Y37.447 E.5409
G1 X159.218 Y37.447 E.01677
G1 X171.93 Y50.159 E.56462
G1 X171.93 Y50.693 E.01677
G1 X158.684 Y37.447 E.58834
G1 X158.149 Y37.447 E.0168
G1 X171.93 Y51.227 E.61208
G1 X171.93 Y51.761 E.01677
G1 X157.615 Y37.446 E.63582
G1 X157.081 Y37.446 E.01677
G1 X171.93 Y52.296 E.65956
G1 X171.93 Y52.83 E.01677
G1 X156.547 Y37.446 E.68328
G1 X156.012 Y37.446 E.0168
G1 X171.93 Y53.364 E.70702
G1 X171.93 Y53.898 E.01677
G1 X155.478 Y37.446 E.73074
G1 X154.944 Y37.446 E.01677
G1 X171.93 Y54.432 E.75446
G1 X171.93 Y54.966 E.01677
G1 X154.41 Y37.446 E.77818
G1 X153.875 Y37.446 E.0168
G1 X171.93 Y55.501 E.80194
G1 X171.93 Y56.035 E.01677
G1 X153.341 Y37.446 E.82566
G1 X152.807 Y37.446 E.01677
M73 Q2 S152
G1 X171.93 Y56.569 E.84938
G1 X171.93 Y57.103 E.01677
G1 X152.273 Y37.446 E.8731
G1 X151.738 Y37.446 E.0168
G1 X171.93 Y57.637 E.89684
G1 X171.93 Y58.172 E.0168
G1 X151.204 Y37.446 E.92058
G1 X150.67 Y37.445 E.01677
G1 X171.93 Y58.706 E.94432
G1 X171.93 Y59.24 E.01677
G1 X150.136 Y37.445 E.96804
G1 X149.601 Y37.445 E.0168
G1 X171.93 Y59.774 E.99178
G1 X171.93 Y60.308 E.01677
G1 X149.067 Y37.445 E1.01549
G1 X148.533 Y37.445 E.01677
G1 X171.93 Y60.842 E1.03921
G1 X171.93 Y61.377 E.0168
G1 X147.999 Y37.445 E1.06295
G1 X147.464 Y37.445 E.0168
G1 X171.93 Y61.911 E1.08669
G1 X171.93 Y62.445 E.01677
G1 X146.93 Y37.445 E1.11041
G1 X146.396 Y37.445 E.01677
G1 X171.93 Y62.979 E1.13413
G1 X171.93 Y63.513 E.01677
G1 X145.862 Y37.445 E1.15785
G1 X145.327 Y37.445 E.0168
G1 X171.93 Y64.047 E1.18159
G1 X171.93 Y64.582 E.0168
G1 X158.565 Y51.217 E.59363
G1 X158.488 Y50.913 E.00985
G1 X158.342 Y50.699 E.00814
G1 X158.219 Y50.591 E.00514
G1 X158.07 Y50.504 E.00542
G1 X157.783 Y50.434 E.00928
G1 X144.793 Y37.445 E.57695
G1 X144.259 Y37.444 E.01677
G1 X157.249 Y50.434 E.57697
G1 X156.714 Y50.434 E.0168
G1 X143.725 Y37.444 E.57695
G1 X143.19 Y37.444 E.0168
G1 X156.18 Y50.434 E.57697
G1 X155.645 Y50.434 E.0168
G1 X142.656 Y37.444 E.57695
G1 X142.122 Y37.444 E.01677
G1 X155.111 Y50.433 E.57693
G1 X154.577 Y50.433 E.01677
G1 X141.588 Y37.444 E.57693
G1 X141.053 Y37.444 E.0168
G1 X154.042 Y50.433 E.57693
G1 X153.508 Y50.433 E.01677
M73 P2 R149
G1 X140.519 Y37.444 E.57693
G1 X139.985 Y37.444 E.01677
G1 X152.974 Y50.432 E.5769
G1 X152.439 Y50.432 E.0168
G1 X139.451 Y37.444 E.57688
G1 X138.916 Y37.444 E.0168
G1 X151.905 Y50.432 E.5769
G1 X151.37 Y50.432 E.0168
G1 X138.382 Y37.444 E.57688
G1 X137.848 Y37.443 E.01677
G1 X150.836 Y50.432 E.5769
G1 X150.302 Y50.431 E.01677
G1 X137.314 Y37.443 E.57688
G1 X136.779 Y37.443 E.0168
G1 X149.767 Y50.431 E.57688
G1 X149.233 Y50.431 E.01677
G1 X136.245 Y37.443 E.57688
G1 X135.711 Y37.443 E.01677
