; generated by PrusaSlicer 2.6.0+win64 on 2023-08-31 at 19:40:37 UTC


;
;
; 

; external perimeters extrusion width = 0.45mm
; perimeters extrusion width = 0.45mm
; infill extrusion width = 0.45mm
; solid infill extrusion width = 0.45mm
; top infill extrusion width = 0.40mm
; first layer extrusion width = 0.42mm

M73 P0 R312
M73 Q0 S318
M201 X1000 Y1000 Z200 E5000 ; sets maximum accelerations, mm/sec^2
M203 X200 Y200 Z12 E120 ; sets maximum feedrates, mm / sec
M204 S1250 T1250 ; sets acceleration (S) and retract acceleration (R), mm/sec^2
M205 X8.00 Y8.00 Z0.40 E4.50 ; sets the jerk limits, mm/sec
M205 S0 T0 ; sets the minimum extruding and travel feed rate, mm/sec
;TYPE:Custom
M862.3 P "MK3S" ; printer model check
M862.1 P0.4 ; nozzle diameter check
M115 U3.11.0 ; tell printer latest fw version
G90 ; use absolute coordinates
M83 ; extruder relative mode
M104 S215 ; set extruder temp
M140 S60 ; set bed temp
M190 S60 ; wait for bed temp
M109 S215 ; wait for extruder temp
G28 W ; home all without mesh bed level
G80 ; mesh bed leveling

G1 Z0.2 F720
G1 Y-3 F1000 ; go outside print area
G92 E0
G1 X60 E9 F1000 ; intro line
G1 X100 E12.5 F1000 ; intro line

G92 E0
M221 S95

; Don't change E values below. Excessive value can damage the printer.
M907 E430 ; set extruder motor current
G21 ; set units to millimeters
G90 ; use absolute coordinates
M83 ; use relative distances for extrusion
M900 K0.05 ; Filament gcode LA 1.5
M900 K30 ; Filament gcode LA 1.0
M107
;LAYER_CHANGE
;Z:0.2
;HEIGHT:0.2
;BEFORE_LAYER_CHANGE
G92 E0.0
;0.2


G1 E-.8 F2100
G1 Z.4 F720
;AFTER_LAYER_CHANGE
;0.2
G1 X35.723 Y60.032 F10800
G1 Z.2 F720
G1 E.8 F2100
M204 S800
;TYPE:Skirt/Brim
;WIDTH:0.42
G1 F1200
G1 X36.663 Y59.839 E.03009
G1 X170.692 Y59.839 E4.20239
G1 X171.999 Y60.23 E.04277
G1 X172.876 Y61.276 E.0428
G1 X173.07 Y62.216 E.03009
G1 X173.07 Y158.216 E3.01001
G1 X172.678 Y159.523 E.04278
G1 X171.632 Y160.399 E.04278
G1 X170.692 Y160.593 E.03009
G1 X36.663 Y160.593 E4.20239
G1 X35.356 Y160.201 E.04278
G1 X34.48 Y159.156 E.04275
G1 X34.286 Y158.216 E.03009
G1 X34.286 Y62.216 E3.01001
G1 X34.677 Y60.909 E.04277
G1 X35.677 Y60.071 E.04091
M204 S1000
; printing object PS3 - LeftTop.stl id:0 copy 0
;WIPE_START
G1 F8640
G1 X36.663 Y59.839 E-.23389
G1 X39.115 Y59.839 E-.56611
;WIPE_END
G1 Z.6 F720
G1 X168.872 Y157.429 F10800
G1 Z.2 F720
G1 E.8 F2100
M204 S800
;TYPE:Perimeter
;WIDTH:0.419999
G1 F1200
M73 P0 R311
G1 X38.484 Y157.429 E4.08822
G1 X38.484 Y63.003 E2.96066
G1 X168.872 Y63.003 E4.08822
G1 X168.872 Y157.369 E2.95877
M204 S1000
G1 X169.249 Y157.806 F10800
M204 S800
;TYPE:External perimeter
G1 F1200
G1 X38.107 Y157.806 E4.11186
G1 X38.107 Y62.626 E2.9843
M73 Q0 S317
G1 X169.249 Y62.626 E4.11186
G1 X169.249 Y157.746 E2.98242
M204 S1000
G1 X168.858 Y157.723 F10800
;WIPE_START
G1 F8640
G1 X165.784 Y157.748 E-.8
;WIPE_END
G1 Z.6 F720
G1 X90.135 Y90.813 F10800
G1 Z.2 F720
G1 E.8 F2100
M204 S800
;TYPE:Perimeter
G1 F1200
G1 X89.263 Y91.23 E.03031
G1 X88.256 Y91.465 E.03242
G1 X87.143 Y91.473 E.0349
G1 X86.208 Y91.269 E.03001
G1 X85.264 Y90.847 E.03242
G1 X84.432 Y90.231 E.03246
G1 X83.752 Y89.451 E.03245
G1 X83.256 Y88.543 E.03244
G1 X82.967 Y87.55 E.03243
G1 X82.897 Y86.518 E.03243
G1 X83.052 Y85.495 E.03244
G1 X83.422 Y84.529 E.03243
G1 X83.992 Y83.665 E.03245
G1 X84.734 Y82.944 E.03244
G1 X85.613 Y82.4 E.03241
G1 X86.59 Y82.057 E.03247
G1 X87.583 Y81.934 E.03137
G1 X88.161 Y81.954 E.01813
G1 X88.677 Y82.035 E.01638
G1 X89.631 Y82.348 E.03148
G1 X90.473 Y82.839 E.03056
G1 X91.284 Y83.572 E.03428
G1 X91.876 Y84.421 E.03245
G1 X92.271 Y85.377 E.03243
G1 X92.451 Y86.396 E.03244
G1 X92.409 Y87.429 E.03242
G1 X92.145 Y88.43 E.03246
G1 X91.672 Y89.35 E.03244
G1 X91.012 Y90.147 E.03245
G1 X90.189 Y90.787 E.03269
M204 S1000
G1 X89.982 Y90.473 F10800
M204 S800
;TYPE:External perimeter
G1 F1200
G1 X89.105 Y90.888 E.03042
G1 X88.175 Y91.097 E.02989
G1 X87.181 Y91.097 E.03117
G1 X86.289 Y90.901 E.02864
G1 X85.422 Y90.504 E.0299
G1 X84.66 Y89.931 E.02989
G1 X84.04 Y89.207 E.02989
G1 X83.589 Y88.367 E.02989
G1 X83.33 Y87.449 E.02991
G1 X83.274 Y86.497 E.0299
G1 X83.424 Y85.556 E.02988
G1 X83.773 Y84.669 E.02989
G1 X84.304 Y83.877 E.0299
G1 X84.993 Y83.218 E.02989
G1 X85.808 Y82.723 E.0299
G1 X86.71 Y82.414 E.0299
G1 X87.624 Y82.308 E.02885
G1 X88.143 Y82.33 E.01629
G1 X88.645 Y82.414 E.01596
G1 X89.511 Y82.706 E.02865
G1 X90.278 Y83.162 E.02798
G1 X91.025 Y83.846 E.03176
G1 X91.564 Y84.632 E.02988
G1 X91.921 Y85.517 E.02992
G1 X92.079 Y86.457 E.02989
G1 X92.032 Y87.409 E.02989
G1 X91.781 Y88.329 E.0299
G1 X91.339 Y89.173 E.02987
G1 X90.725 Y89.903 E.02991
G1 X90.029 Y90.437 E.02751
M204 S1000
G1 X89.992 Y90.873 F10800
;WIPE_START
G1 F8640
G1 X89.105 Y90.888 E-.23741
G1 X88.175 Y91.097 E-.2201
G1 X87.181 Y91.097 E-.22952
G1 X86.703 Y90.992 E-.11297
;WIPE_END
G1 Z.6 F720
G1 X85.678 Y122.377 F10800
G1 Z.2 F720
G1 E.8 F2100
M204 S800
;TYPE:Perimeter
G1 F1200
G1 X86.59 Y122.057 E.0303
G1 X87.583 Y121.934 E.03137
G1 X88.161 Y121.954 E.01813
G1 X88.677 Y122.035 E.01638
G1 X89.631 Y122.348 E.03148
G1 X90.524 Y122.87 E.03243
G1 X91.284 Y123.572 E.03244
G1 X91.876 Y124.421 E.03245
G1 X92.271 Y125.377 E.03243
G1 X92.451 Y126.396 E.03244
G1 X92.409 Y127.429 E.03242
G1 X92.145 Y128.43 E.03246
G1 X91.672 Y129.35 E.03244
G1 X91.012 Y130.147 E.03245
G1 X90.197 Y130.784 E.03243
G1 X89.263 Y131.23 E.03245
G1 X88.256 Y131.465 E.03242
G1 X87.221 Y131.478 E.03245
G1 X86.208 Y131.269 E.03243
G1 X85.264 Y130.847 E.03242
G1 X84.432 Y130.231 E.03246
G1 X83.752 Y129.451 E.03245
G1 X83.256 Y128.543 E.03244
G1 X82.961 Y127.531 E.03305
G1 X82.897 Y126.518 E.03183
G1 X83.052 Y125.495 E.03244
G1 X83.422 Y124.529 E.03243
G1 X83.992 Y123.665 E.03245
G1 X84.734 Y122.944 E.03244
G1 X85.622 Y122.397 E.0327
M204 S1000
G1 X85.794 Y122.731 F10800
M204 S800
;TYPE:External perimeter
G1 F1200
G1 X86.71 Y122.414 E.03039
G1 X87.624 Y122.308 E.02885
G1 X88.143 Y122.33 E.01629
G1 X88.645 Y122.414 E.01596
G1 X89.511 Y122.706 E.02865
G1 X90.33 Y123.193 E.02988
G1 X91.025 Y123.846 E.0299
G1 X91.564 Y124.632 E.02988
G1 X91.921 Y125.517 E.02992
G1 X92.079 Y126.457 E.02989
G1 X92.032 Y127.409 E.02989
G1 X91.781 Y128.329 E.0299
G1 X91.339 Y129.173 E.02987
G1 X90.725 Y129.903 E.02991
G1 X89.968 Y130.483 E.0299
G1 X89.105 Y130.888 E.02989
G1 X88.175 Y131.097 E.02989
G1 X87.221 Y131.101 E.02991
G1 X86.289 Y130.901 E.02989
G1 X85.422 Y130.504 E.0299
G1 X84.66 Y129.931 E.02989
G1 X84.04 Y129.207 E.02989
G1 X83.589 Y128.367 E.02989
G1 X83.328 Y127.443 E.0301
G1 X83.274 Y126.497 E.02971
G1 X83.424 Y125.556 E.02988
G1 X83.773 Y124.669 E.02989
G1 X84.304 Y123.877 E.0299
G1 X84.993 Y123.218 E.02989
G1 X85.742 Y122.763 E.02748
M204 S1000
G1 X85.827 Y122.333 F10800
;WIPE_START
G1 F8640
G1 X86.71 Y122.414 E-.2376
G1 X87.624 Y122.308 E-.21246
G1 X88.143 Y122.33 E-.11995
G1 X88.645 Y122.414 E-.11752
G1 X89.107 Y122.57 E-.11247
;WIPE_END
G1 Z.6 F720
G1 X154.869 Y76.052 F10800
G1 Z.2 F720
G1 E.8 F2100
M204 S800
;TYPE:Perimeter
G1 F1200
G1 X154.93 Y76.104 E.00251
G1 X155.028 Y76.369 E.00886
G1 X155.031 Y76.428 E.00185
G1 X155.031 Y137.004 E1.89931
G1 X154.96 Y137.279 E.00891
G1 X154.791 Y137.466 E.0079
G1 X154.553 Y137.563 E.00806
G1 X154.466 Y137.57 E.00274
G1 X106.89 Y137.569 E1.49171
G1 X106.806 Y137.563 E.00264
G1 X106.55 Y137.456 E.0087
G1 X106.383 Y137.255 E.00819
G1 X106.324 Y137.004 E.00808
G1 X106.324 Y76.428 E1.89931
G1 X106.386 Y76.171 E.00829
M73 P0 R310
G1 X106.55 Y75.976 E.00799
G1 X106.792 Y75.871 E.00827
G1 X106.89 Y75.862 E.00309
G1 X154.466 Y75.862 E1.49171
G1 X154.714 Y75.92 E.00799
G1 X154.824 Y76.013 E.00452
M204 S1000
G1 X154.61 Y76.306 F10800
M204 S800
;TYPE:External perimeter
G1 F1200
G1 X154.654 Y76.428 E.00407
G1 X154.654 Y137.004 E1.89931
G1 X154.587 Y137.149 E.00501
G1 X154.466 Y137.192 E.00403
G1 X106.89 Y137.192 E1.49171
G1 X106.729 Y137.103 E.00577
G1 X106.701 Y137.004 E.00323
G1 X106.701 Y76.428 E1.89931
G1 X106.762 Y76.289 E.00476
G1 X106.89 Y76.239 E.00431
G1 X154.466 Y76.239 E1.49171
G1 X154.555 Y76.281 E.00309
M204 S1000
G1 X154.736 Y76.276 F10800
;WIPE_START
G1 F8640
G1 X154.654 Y76.428 E-.04092
G1 X154.654 Y79.715 E-.75908
;WIPE_END
G1 Z.6 F720
G1 X167.995 Y63.116 F10800
G1 Z.2 F720
G1 E.8 F2100
M204 S800
;TYPE:Solid infill
;WIDTH:0.420778
G1 F1200
G1 X168.589 Y63.71 E.02639
G1 X168.589 Y64.245 E.01681
G1 X167.63 Y63.286 E.04261
G1 X167.096 Y63.286 E.01678
G1 X168.589 Y64.779 E.06634
G1 X168.589 Y65.313 E.01678
G1 X166.561 Y63.286 E.09009
G1 X166.027 Y63.286 E.01678
G1 X168.589 Y65.848 E.11384
G1 X168.589 Y66.382 E.01678
G1 X165.492 Y63.286 E.13759
G1 X164.958 Y63.286 E.01678
G1 X168.589 Y66.916 E.16131
G1 X168.589 Y67.451 E.01681
G1 X164.424 Y63.286 E.18506
G1 X163.889 Y63.286 E.01681
G1 X168.589 Y67.985 E.20881
G1 X168.589 Y68.52 E.01681
G1 X163.355 Y63.286 E.23256
G1 X162.821 Y63.286 E.01678
G1 X168.589 Y69.054 E.25629
G1 X168.589 Y69.588 E.01678
G1 X162.286 Y63.286 E.28004
G1 X161.752 Y63.286 E.01678
G1 X168.589 Y70.123 E.30379
G1 X168.589 Y70.657 E.01678
G1 X161.217 Y63.286 E.32754
G1 X160.683 Y63.286 E.01678
G1 X168.589 Y71.191 E.35127
G1 X168.589 Y71.726 E.01681
G1 X160.149 Y63.286 E.37502
G1 X159.614 Y63.286 E.01681
G1 X168.589 Y72.26 E.39877
G1 X168.589 Y72.795 E.01681
G1 X159.08 Y63.286 E.42252
G1 X158.546 Y63.286 E.01678
G1 X168.589 Y73.329 E.44624
G1 X168.589 Y73.863 E.01678
G1 X158.011 Y63.286 E.46999
M73 Q0 S316
G1 X157.477 Y63.286 E.01678
G1 X168.589 Y74.398 E.49374
G1 X168.589 Y74.932 E.01678
G1 X156.943 Y63.286 E.51747
G1 X156.408 Y63.286 E.01681
G1 X168.589 Y75.466 E.54122
G1 X168.589 Y76.001 E.01681
G1 X155.874 Y63.286 E.56497
G1 X155.339 Y63.286 E.01681
G1 X168.589 Y76.535 E.58872
G1 X168.589 Y77.07 E.01681
G1 X154.805 Y63.286 E.61247
G1 X154.271 Y63.286 E.01678
G1 X168.589 Y77.604 E.63619
G1 X168.589 Y78.138 E.01678
G1 X153.736 Y63.286 E.65994
G1 X153.202 Y63.286 E.01678
G1 X168.589 Y78.673 E.68369
G1 X168.589 Y79.207 E.01678
G1 X152.668 Y63.286 E.70742
G1 X152.133 Y63.286 E.01681
G1 X168.589 Y79.741 E.73117
G1 X168.589 Y80.276 E.01681
G1 X151.599 Y63.286 E.75492
G1 X151.064 Y63.286 E.01681
G1 X168.589 Y80.81 E.77867
G1 X168.589 Y81.345 E.01681
G1 X150.53 Y63.286 E.80242
G1 X149.996 Y63.286 E.01678
G1 X168.589 Y81.879 E.82615
G1 X168.589 Y82.413 E.01678
G1 X149.461 Y63.286 E.8499
G1 X148.927 Y63.286 E.01678
G1 X168.589 Y82.948 E.87365
G1 X168.589 Y83.482 E.01678
G1 X148.393 Y63.286 E.89737
G1 X147.858 Y63.286 E.01681
G1 X168.589 Y84.016 E.92112
G1 X168.589 Y84.551 E.01681
G1 X147.324 Y63.286 E.94487
G1 X146.789 Y63.286 E.01681
G1 X168.589 Y85.085 E.96862
G1 X168.589 Y85.619 E.01678
G1 X146.255 Y63.286 E.99235
G1 X145.721 Y63.286 E.01678
G1 X168.589 Y86.154 E1.0161
G1 X168.589 Y86.688 E.01678
G1 X145.186 Y63.286 E1.03985
G1 X144.652 Y63.286 E.01678
G1 X168.589 Y87.223 E1.0636
G1 X168.589 Y87.757 E.01678
G1 X144.118 Y63.286 E1.08733
G1 X143.583 Y63.286 E.01681
G1 X168.589 Y88.291 E1.11107
G1 X168.589 Y88.826 E.01681
M73 P0 R309
G1 X143.049 Y63.286 E1.13482
G1 X142.514 Y63.286 E.01681
G1 X168.589 Y89.36 E1.15857
G1 X168.589 Y89.894 E.01678
G1 X155.314 Y76.62 E.58983
G1 X155.314 Y77.154 E.01678
G1 X168.589 Y90.429 E.58985
G1 X168.589 Y90.963 E.01678
G1 X155.314 Y77.689 E.58983
G1 X155.314 Y78.223 E.01678
G1 X168.589 Y91.498 E.58985
G1 X168.589 Y92.032 E.01678
G1 X155.314 Y78.757 E.58985
G1 X155.314 Y79.292 E.01681
G1 X168.589 Y92.566 E.58983
G1 X168.589 Y93.101 E.01681
G1 X155.314 Y79.826 E.58985
G1 X155.314 Y80.36 E.01678
G1 X168.589 Y93.635 E.58985
G1 X168.589 Y94.169 E.01678
G1 X155.314 Y80.895 E.58983
G1 X155.314 Y81.429 E.01678
G1 X168.589 Y94.704 E.58985
G1 X168.589 Y95.238 E.01678
G1 X155.314 Y81.964 E.58983
G1 X155.314 Y82.498 E.01678
G1 X168.589 Y95.773 E.58985
G1 X168.589 Y96.307 E.01678
G1 X155.314 Y83.032 E.58985
G1 X155.314 Y83.567 E.01681
G1 X168.589 Y96.841 E.58983
G1 X168.589 Y97.376 E.01681
G1 X155.314 Y84.101 E.58985
G1 X155.314 Y84.635 E.01678
G1 X168.589 Y97.91 E.58985
G1 X168.589 Y98.444 E.01678
G1 X155.314 Y85.17 E.58983
G1 X155.314 Y85.704 E.01678
G1 X168.589 Y98.979 E.58985
G1 X168.589 Y99.513 E.01678
G1 X155.314 Y86.239 E.58983
G1 X155.314 Y86.773 E.01678
G1 X168.589 Y100.048 E.58985
G1 X168.589 Y100.582 E.01678
G1 X155.314 Y87.307 E.58985
G1 X155.314 Y87.842 E.01681
M73 Q0 S315
G1 X168.589 Y101.116 E.58983
G1 X168.589 Y101.651 E.01681
G1 X155.314 Y88.376 E.58985
G1 X155.314 Y88.91 E.01678
G1 X168.589 Y102.185 E.58985
G1 X168.589 Y102.719 E.01678
G1 X155.314 Y89.445 E.58983
G1 X155.314 Y89.979 E.01678
G1 X168.589 Y103.254 E.58985
G1 X168.589 Y103.788 E.01678
G1 X155.314 Y90.513 E.58985
G1 X155.314 Y91.048 E.01681
G1 X168.589 Y104.323 E.58985
G1 X168.589 Y104.857 E.01678
G1 X155.314 Y91.582 E.58985
G1 X155.314 Y92.117 E.01681
G1 X168.589 Y105.391 E.58983
G1 X168.589 Y105.926 E.01681
G1 X155.314 Y92.651 E.58985
G1 X155.314 Y93.185 E.01678
G1 X168.589 Y106.46 E.58985
G1 X168.589 Y106.994 E.01678
M73 P1 R309
G1 X155.314 Y93.72 E.58983
G1 X155.314 Y94.254 E.01678
G1 X168.589 Y107.529 E.58985
G1 X168.589 Y108.063 E.01678
G1 X155.314 Y94.788 E.58985
G1 X155.314 Y95.323 E.01681
G1 X168.589 Y108.597 E.58983
M73 Q1 S315
G1 X168.589 Y109.132 E.01681
G1 X155.314 Y95.857 E.58985
G1 X155.314 Y96.392 E.01681
G1 X168.589 Y109.666 E.58983
G1 X168.589 Y110.201 E.01681
G1 X155.314 Y96.926 E.58985
G1 X155.314 Y97.46 E.01678
G1 X168.589 Y110.735 E.58985
G1 X168.589 Y111.269 E.01678
G1 X155.314 Y97.995 E.58983
G1 X155.314 Y98.529 E.01678
G1 X168.589 Y111.804 E.58985
G1 X168.589 Y112.338 E.01678
G1 X155.314 Y99.063 E.58985
G1 X155.314 Y99.598 E.01681
G1 X168.589 Y112.872 E.58983
G1 X168.589 Y113.407 E.01681
G1 X155.314 Y100.132 E.58985
G1 X155.314 Y100.667 E.01681
G1 X168.589 Y113.941 E.58983
G1 X168.589 Y114.476 E.01681
G1 X155.314 Y101.201 E.58985
G1 X155.314 Y101.735 E.01678
G1 X168.589 Y115.01 E.58985
G1 X168.589 Y115.544 E.01678
G1 X155.314 Y102.27 E.58983
G1 X155.314 Y102.804 E.01678
G1 X168.589 Y116.079 E.58985
G1 X168.589 Y116.613 E.01678
G1 X155.314 Y103.338 E.58985
G1 X155.314 Y103.873 E.01681
G1 X168.589 Y117.147 E.58983
G1 X168.589 Y117.682 E.01681
G1 X155.314 Y104.407 E.58985
G1 X155.314 Y104.942 E.01681
G1 X168.589 Y118.216 E.58983
G1 X168.589 Y118.751 E.01681
G1 X155.314 Y105.476 E.58985
G1 X155.314 Y106.01 E.01678
G1 X168.589 Y119.285 E.58985
G1 X168.589 Y119.819 E.01678
G1 X155.314 Y106.545 E.58983
G1 X155.314 Y107.079 E.01678
G1 X168.589 Y120.354 E.58985
G1 X168.589 Y120.888 E.01678
M73 P1 R308
G1 X155.314 Y107.613 E.58985
G1 X155.314 Y108.148 E.01681
G1 X168.589 Y121.422 E.58983
G1 X168.589 Y121.957 E.01681
G1 X155.314 Y108.682 E.58985
G1 X155.314 Y109.216 E.01678
G1 X168.589 Y122.491 E.58985
G1 X168.589 Y123.026 E.01681
G1 X155.314 Y109.751 E.58985
G1 X155.314 Y110.285 E.01678
G1 X168.589 Y123.56 E.58985
G1 X168.589 Y124.094 E.01678
G1 X155.314 Y110.82 E.58983
G1 X155.314 Y111.354 E.01678
G1 X168.589 Y124.629 E.58985
G1 X168.589 Y125.163 E.01678
G1 X155.314 Y111.888 E.58985
G1 X155.314 Y112.423 E.01681
G1 X168.589 Y125.697 E.58983
G1 X168.589 Y126.232 E.01681
G1 X155.314 Y112.957 E.58985
G1 X155.314 Y113.491 E.01678
G1 X168.589 Y126.766 E.58985
G1 X168.589 Y127.301 E.01681
G1 X155.314 Y114.026 E.58985
G1 X155.314 Y114.56 E.01678
G1 X168.589 Y127.835 E.58985
G1 X168.589 Y128.369 E.01678
G1 X155.314 Y115.095 E.58983
G1 X155.314 Y115.629 E.01678
G1 X168.589 Y128.904 E.58985
G1 X168.589 Y129.438 E.01678
G1 X155.314 Y116.163 E.58985
G1 X155.314 Y116.698 E.01681
G1 X168.589 Y129.972 E.58983
G1 X168.589 Y130.507 E.01681
G1 X155.314 Y117.232 E.58985
G1 X155.314 Y117.766 E.01678
G1 X168.589 Y131.041 E.58985
G1 X168.589 Y131.575 E.01678
G1 X155.314 Y118.301 E.58983
G1 X155.314 Y118.835 E.01678
G1 X168.589 Y132.11 E.58985
G1 X168.589 Y132.644 E.01678
G1 X155.314 Y119.37 E.58983
G1 X155.314 Y119.904 E.01678
G1 X168.589 Y133.179 E.58985
G1 X168.589 Y133.713 E.01678
M73 Q1 S314
G1 X155.314 Y120.438 E.58985
G1 X155.314 Y120.973 E.01681
G1 X168.589 Y134.247 E.58983
G1 X168.589 Y134.782 E.01681
G1 X155.314 Y121.507 E.58985
G1 X155.314 Y122.041 E.01678
G1 X168.589 Y135.316 E.58985
G1 X168.589 Y135.85 E.01678
G1 X155.314 Y122.576 E.58983
