; generated by PrusaSlicer 2.7.0+win64 on 2023-12-08 at 07:58:19 UTC


;
;
; 

; external perimeters extrusion width = 0.45mm
; perimeters extrusion width = 0.45mm
; infill extrusion width = 0.45mm
; solid infill extrusion width = 0.45mm
; top infill extrusion width = 0.40mm
; first layer extrusion width = 0.42mm

M73 P0 R264
M73 Q0 S265
M201 X1000 Y1000 Z200 E5000 ; sets maximum accelerations, mm/sec^2
M203 X200 Y200 Z12 E120 ; sets maximum feedrates, mm / sec
M204 S1250 T1250 ; sets acceleration (S) and retract acceleration (R), mm/sec^2
M205 X8.00 Y8.00 Z0.40 E4.50 ; sets the jerk limits, mm/sec
M205 S0 T0 ; sets the minimum extruding and travel feed rate, mm/sec

; printing object PS3WT_bottom_v3.stl id:0 copy 0
; stop printing object PS3WT_bottom_v3.stl id:0 copy 0

;TYPE:Custom
M862.3 P "MK3S" ; printer model check
M862.1 P0.4 ; nozzle diameter check
M115 U3.12.2 ; tell printer latest fw version
G90 ; use absolute coordinates
M83 ; extruder relative mode
M104 S215 ; set extruder temp
M140 S60 ; set bed temp
M190 S60 ; wait for bed temp
M109 S215 ; wait for extruder temp
G28 W ; home all without mesh bed level
G80 ; mesh bed leveling

G1 Z0.2 F720
G1 Y-3 F1000 ; go outside print area
G92 E0
G1 X60 E9 F1000 ; intro line
G1 X100 E12.5 F1000 ; intro line
M73 P0 R263

G92 E0
M221 S95

; Don't change E values below. Excessive value can damage the printer.
M907 E430 ; set extruder motor current
G21 ; set units to millimeters
G90 ; use absolute coordinates
M83 ; use relative distances for extrusion
M900 K0.05 ; Filament gcode LA 1.5
M900 K30 ; Filament gcode LA 1.0
M107
;LAYER_CHANGE
;Z:0.2
;HEIGHT:0.2
;BEFORE_LAYER_CHANGE
G92 E0.0
;0.2


G1 E-.8 F2100
G1 Z.2 F720
;AFTER_LAYER_CHANGE
;0.2
G1 X16.196 Y19.325 F10800
G1 Z.2 F720
G1 E.8 F2100
M204 S800
;TYPE:Skirt/Brim
;WIDTH:0.42
G1 F1200
G1 X16.336 Y19.208 E.00572
G1 X17.276 Y19.014 E.03009
G1 X232.926 Y19.014 E6.76155
G1 X234.233 Y19.406 E.04278
G1 X235.109 Y20.452 E.04278
G1 X235.303 Y21.391 E.03006
G1 X235.303 Y136.041 E3.59477
G1 X234.911 Y137.348 E.04278
G1 X233.866 Y138.225 E.04277
G1 X232.926 Y138.418 E.03009
G1 X17.276 Y138.418 E6.76155
G1 X15.969 Y138.027 E.04277
G1 X15.092 Y136.981 E.0428
G1 X14.899 Y136.041 E.03009
G1 X14.899 Y21.391 E3.59477
G1 X15.29 Y20.084 E.04277
G1 X16.15 Y19.364 E.03517
M204 S1000
; printing object PS3WT_bottom_v3.stl id:0 copy 0
;WIPE_START
G1 F8640
G1 X16.196 Y19.325 E-.01393
G1 X16.336 Y19.208 E-.04213
G1 X17.276 Y19.014 E-.22162
G1 X19.538 Y19.014 E-.52232
;WIPE_END
G1 Z.6 F720
G1 X227.377 Y22.503 F10800
G1 Z.2 F720
G1 E.8 F2100
M204 S800
;TYPE:Perimeter
;WIDTH:0.419999
G1 F1200
G1 X227.927 Y22.503 E.01724
;WIDTH:0.43242
G1 X229.04 Y22.491 E.03605
;WIDTH:0.412783
G1 X229.612 Y22.5 E.01759
;WIDTH:0.419999
G1 X231.814 Y22.503 E.06904
G1 X231.814 Y23.108 E.01897
G1 X231.814 Y24.579 E.04612
;WIDTH:0.418631
G1 X231.827 Y25.216 E.0199
;WIDTH:0.421143
G1 X231.814 Y26.247 E.03243
;WIDTH:0.419999
G1 X231.814 Y131.531 E3.3011
;WIDTH:0.418912
G1 X231.827 Y132.216 E.02142
M73 Q0 S264
;WIDTH:0.421143
G1 X231.814 Y133.247 E.03243
;WIDTH:0.419999
G1 X231.814 Y134.929 E.05274
G1 X229.421 Y134.935 E.07503
;WIDTH:0.408372
G1 X228.806 Y134.936 E.01869
;WIDTH:0.419999
G1 X22.517 Y134.929 E6.46804
;WIDTH:0.427846
G1 X21.318 Y134.939 E.03838
;WIDTH:0.406715
G1 X20.766 Y134.936 E.0167
;WIDTH:0.419999
G1 X18.388 Y134.929 E.07456
G1 X18.388 Y133.481 E.0454
;WIDTH:0.420814
G1 X18.376 Y132.295 E.03727
;WIDTH:0.41767
G1 X18.387 Y131.743 E.0172
;WIDTH:0.419999
G1 X18.388 Y26.486 E3.30025
;WIDTH:0.420692
G1 X18.376 Y25.295 E.03741
M73 P0 R262
;WIDTH:0.41767
G1 X18.387 Y24.743 E.0172
;WIDTH:0.419999
G1 X18.388 Y22.503 E.07023
G1 X19.688 Y22.503 E.04076
;WIDTH:0.43242
G1 X20.489 Y22.51 E.02594
G1 X21.04 Y22.491 E.01786
;WIDTH:0.412783
G1 X21.612 Y22.5 E.01759
;WIDTH:0.419999
G1 X124.321 Y22.503 E3.22036
;WIDTH:0.453655
G1 X124.568 Y22.52 E.00846
;WIDTH:0.48731
G1 X124.816 Y22.537 E.00919
;WIDTH:0.520965
G1 X125.063 Y22.554 E.00984
;WIDTH:0.545553
G1 X125.59 Y22.566 E.02203
G1 X125.789 Y22.545 E.00836
;WIDTH:0.503702
G1 X125.988 Y22.524 E.00767
;WIDTH:0.461851
G1 X126.187 Y22.503 E.00697
;WIDTH:0.419999
G1 X227.317 Y22.503 E3.17085
M204 S1000
;WIPE_START
G1 F8640
G1 X227.377 Y22.503 E-.01385
G1 X227.927 Y22.503 E-.127
;WIPE_END
G1 E-.65915 F2100
G1 Z.6 F720
G1 X232.191 Y135.306 F10800
G1 Z.2 F720
G1 E.8 F2100
M204 S800
;TYPE:External perimeter
G1 F1200
G1 X18.011 Y135.306 E6.71545
G1 X18.011 Y22.126 E3.54867
G1 X232.191 Y22.126 E6.71545
G1 X232.191 Y23.108 E.03079
M73 Q0 S263
G1 X232.191 Y135.246 E3.516
M204 S1000
;WIPE_START
G1 F8640
G1 X232.191 Y135.306 E-.01385
G1 X228.786 Y135.306 E-.78615
;WIPE_END
G1 Z.6 F720
G1 X227.379 Y23.59 F10800
G1 Z.2 F720
G1 E.8 F2100
M204 S800
;TYPE:Perimeter
G1 F1200
G1 X227.905 Y23.157 E.02136
;WIDTH:0.427844
G1 X228.403 Y22.932 E.01749
G1 X228.912 Y22.849 E.01651
;WIDTH:0.412783
G1 X229.551 Y22.882 E.01968
;WIDTH:0.419999
G1 X230.131 Y23.069 E.01911
G1 X230.598 Y23.36 E.01725
G1 X230.962 Y23.725 E.01616
G1 X231.239 Y24.16 E.01617
G1 X231.415 Y24.644 E.01615
;WIDTH:0.418631
G1 X231.473 Y25.156 E.0161
;WIDTH:0.417669
G1 X231.441 Y25.669 E.01602
;WIDTH:0.419999
G1 X231.29 Y26.161 E.01614
G1 X230.892 Y26.787 E.02326
G1 X230.489 Y27.155 E.01711
G1 X230.04 Y27.409 E.01617
G1 X229.547 Y27.559 E.01616
G1 X229.396 Y27.58 E.00478
G1 X228.806 Y27.58 E.0185
G1 X228.275 Y27.454 E.01711
G1 X227.813 Y27.224 E.01618
G1 X227.412 Y26.9 E.01616
G1 X227.09 Y26.498 E.01615
G1 X226.796 Y25.818 E.02323
G1 X226.717 Y25.278 E.01711
G1 X226.759 Y24.764 E.01617
G1 X226.903 Y24.291 E.0155
G1 X227.307 Y23.65 E.02376
G1 X227.333 Y23.629 E.00105
M204 S1000
G1 X227.588 Y23.909 F10800
M204 S800
;TYPE:External perimeter
G1 F1200
G1 X227.621 Y23.859 E.00188
G1 X228.133 Y23.457 E.02041
G1 X228.583 Y23.275 E.01522
G1 X229.012 Y23.209 E.01361
G1 X229.434 Y23.237 E.01326
G1 X230.013 Y23.428 E.01912
G1 X230.417 Y23.698 E.01524
G1 X230.713 Y24.017 E.01364
G1 X230.933 Y24.391 E.0136
G1 X231.067 Y24.804 E.01361
G1 X231.11 Y25.237 E.01364
G1 X231.059 Y25.668 E.01361
G1 X230.911 Y26.087 E.01393
G1 X230.58 Y26.575 E.01849
G1 X230.211 Y26.891 E.01523
G1 X229.826 Y27.091 E.0136
G1 X229.396 Y27.203 E.01393
G1 X228.806 Y27.203 E.0185
G1 X228.338 Y27.075 E.01521
G1 X227.956 Y26.868 E.01362
G1 X227.628 Y26.583 E.01362
G1 X227.365 Y26.226 E.0139
G1 X227.146 Y25.678 E.0185
G1 X227.091 Y25.196 E.01521
G1 X227.143 Y24.765 E.01361
G1 X227.283 Y24.366 E.01326
G1 X227.554 Y23.959 E.01533
M204 S1000
;WIPE_START
G1 F8640
G1 X227.588 Y23.909 E-.01396
G1 X227.621 Y23.859 E-.01383
G1 X228.133 Y23.457 E-.15031
G1 X228.583 Y23.275 E-.11208
G1 X229.012 Y23.209 E-.10022
G1 X229.434 Y23.237 E-.09766
G1 X230.013 Y23.428 E-.14078
G1 X230.417 Y23.698 E-.1122
G1 X230.591 Y23.885 E-.05896
;WIPE_END
G1 Z.6 F720
G1 X181.285 Y70.549 F10800
G1 Z.2 F720
G1 E.8 F2100
M204 S800
;TYPE:Perimeter
G1 F1200
G1 X181.87 Y70.036 E.0244
G1 X182.606 Y69.631 E.02634
G1 X183.412 Y69.393 E.02635
G1 X184.25 Y69.335 E.02634
G1 X185.081 Y69.457 E.02633
G1 X185.866 Y69.756 E.02634
G1 X186.569 Y70.216 E.02634
G1 X187.156 Y70.817 E.02634
G1 X187.6 Y71.53 E.02634
G1 X187.881 Y72.322 E.02635
G1 X187.985 Y73.155 E.02632
G1 X187.907 Y73.992 E.02636
G1 X187.652 Y74.792 E.02633
G1 X187.23 Y75.518 E.02633
G1 X186.662 Y76.137 E.02634
G1 X185.974 Y76.619 E.02634
G1 X185.199 Y76.943 E.02634
G1 X184.372 Y77.091 E.02634
G1 X183.533 Y77.059 E.02633
G1 X182.72 Y76.847 E.02634
G1 X181.972 Y76.466 E.02632
G1 X181.323 Y75.932 E.02635
G1 X180.804 Y75.271 E.02635
G1 X180.424 Y74.477 E.0276
G1 X180.246 Y73.697 E.02509
G1 X180.233 Y72.857 E.02634
G1 X180.4 Y72.034 E.02633
G1 X180.741 Y71.266 E.02635
G1 X181.239 Y70.59 E.02633
M204 S1000
G1 X181.438 Y70.953 F10800
M204 S800
;TYPE:External perimeter
G1 F1200
G1 X181.539 Y70.818 E.00529
G1 X182.115 Y70.323 E.02381
G1 X182.783 Y69.964 E.02378
G1 X183.513 Y69.757 E.02379
G1 X184.27 Y69.711 E.02378
G1 X185.02 Y69.83 E.02381
G1 X185.726 Y70.106 E.02377
G1 X186.357 Y70.529 E.02382
G1 X186.882 Y71.076 E.02377
G1 X187.277 Y71.724 E.02379
G1 X187.524 Y72.442 E.02381
G1 X187.61 Y73.196 E.02379
G1 X187.532 Y73.951 E.0238
G1 X187.294 Y74.671 E.02378
G1 X186.907 Y75.324 E.0238
G1 X186.388 Y75.878 E.0238
G1 X185.763 Y76.307 E.02377
G1 X185.059 Y76.592 E.02381
G1 X184.311 Y76.719 E.02379
G1 X183.553 Y76.683 E.02379
G1 X182.821 Y76.484 E.02378
G1 X182.148 Y76.132 E.02381
G1 X181.567 Y75.644 E.02379
G1 X181.104 Y75.043 E.02379
G1 X180.777 Y74.344 E.0242
G1 X180.614 Y73.616 E.02339
G1 X180.61 Y72.857 E.0238
G1 X180.769 Y72.115 E.02379
G1 X181.083 Y71.425 E.02377
G1 X181.402 Y71 E.01666
M204 S1000
;WIPE_START
G1 F8640
G1 X181.438 Y70.953 E-.01367
G1 X181.539 Y70.818 E-.03893
G1 X182.115 Y70.323 E-.17536
G1 X182.783 Y69.964 E-.17511
G1 X183.513 Y69.757 E-.1752
G1 X184.27 Y69.711 E-.17512
G1 X184.469 Y69.743 E-.04661
;WIPE_END
G1 Z.6 F720
G1 X231.414 Y131.696 F10800
G1 Z.2 F720
G1 E.8 F2100
M204 S800
;TYPE:Perimeter
;WIDTH:0.418912
G1 F1200
G1 X231.473 Y132.156 E.0145
;WIDTH:0.417669
G1 X231.441 Y132.669 E.01602
;WIDTH:0.419999
G1 X231.29 Y133.161 E.01614
G1 X230.892 Y133.787 E.02326
G1 X230.489 Y134.155 E.01711
G1 X230.04 Y134.409 E.01617
G1 X229.512 Y134.564 E.01725
;WIDTH:0.413989
G1 X228.81 Y134.573 E.02166
;WIDTH:0.419998
G1 X228.275 Y134.454 E.01718
G1 X227.813 Y134.224 E.01618
G1 X227.412 Y133.9 E.01616
G1 X227.09 Y133.498 E.01615
G1 X226.796 Y132.818 E.02323
G1 X226.717 Y132.278 E.01711
G1 X226.759 Y131.764 E.01617
G1 X226.935 Y131.214 E.01811
G1 X227.308 Y130.649 E.02123
G1 X227.712 Y130.277 E.01722
G1 X228.161 Y130.024 E.01616
G1 X228.881 Y129.845 E.02326
G1 X229.426 Y129.854 E.01709
;WIDTH:0.419999
G1 X229.926 Y129.979 E.01616
G1 X230.388 Y130.209 E.01618
G1 X230.79 Y130.532 E.01617
G1 X231.1 Y130.917 E.0155
G1 X231.403 Y131.612 E.02377
;WIDTH:0.418912
G1 X231.407 Y131.636 E.00076
M204 S1000
G1 X231.046 Y131.732 F10800
M204 S800
;TYPE:External perimeter
;WIDTH:0.419999
G1 F1200
G1 X231.055 Y131.754 E.00075
G1 X231.11 Y132.237 E.01524
G1 X231.059 Y132.668 E.01361
G1 X230.911 Y133.087 E.01393
G1 X230.58 Y133.575 E.01849
G1 X230.211 Y133.891 E.01523
G1 X229.826 Y134.09 E.01359
G1 X229.417 Y134.198 E.01326
G1 X228.806 Y134.203 E.01916
G1 X228.338 Y134.075 E.01521
G1 X227.956 Y133.868 E.01362
G1 X227.628 Y133.583 E.01362
G1 X227.365 Y133.226 E.0139
G1 X227.146 Y132.678 E.0185
G1 X227.091 Y132.196 E.01521
G1 X227.143 Y131.765 E.01361
G1 X227.283 Y131.366 E.01326
G1 X227.621 Y130.859 E.01911
G1 X227.99 Y130.542 E.01525
G1 X228.386 Y130.34 E.01394
G1 X228.962 Y130.213 E.01849
G1 X229.406 Y130.23 E.01393
G1 X229.863 Y130.357 E.01487
G1 X230.245 Y130.565 E.01364
G1 X230.573 Y130.849 E.0136
G1 X230.825 Y131.189 E.01327
G1 X231.023 Y131.676 E.01648
M204 S1000
;WIPE_START
G1 F8640
G1 X231.046 Y131.732 E-.01398
G1 X231.055 Y131.754 E-.00549
G1 X231.11 Y132.237 E-.11225
G1 X231.059 Y132.668 E-.10021
G1 X230.911 Y133.087 E-.10261
G1 X230.58 Y133.575 E-.13616
G1 X230.211 Y133.891 E-.11218
G1 X229.826 Y134.09 E-.10007
G1 X229.417 Y134.198 E-.09768
G1 X229.333 Y134.199 E-.01937
;WIPE_END
G1 Z.6 F720
G1 X123.904 Y23.455 F10800
G1 Z.2 F720
G1 E.8 F2100
M204 S800
;TYPE:Perimeter
G1 F1200
G1 X123.954 Y23.416 E.00199
G1 X124.398 Y23.204 E.01543
;WIDTH:0.468464
G1 X124.641 Y23.125 E.00904
;WIDTH:0.516929
G1 X124.884 Y23.047 E.01006
;WIDTH:0.530156
G1 X125.389 Y23.045 E.02046
;WIDTH:0.545553
G1 X125.523 Y23.06 E.00564
G1 X125.673 Y23.13 E.00692
;WIDTH:0.503702
G1 X125.823 Y23.201 E.00636
;WIDTH:0.461851
G1 X125.973 Y23.271 E.00577
;WIDTH:0.419999
G1 X126.41 Y23.534 E.01599
G1 X126.762 Y23.876 E.01539
G1 X127.09 Y24.449 E.0207
G1 X127.216 Y24.925 E.01544
G1 X127.216 Y25.508 E.01828
G1 X127.104 Y25.956 E.01448
G1 X126.898 Y26.369 E.01447
G1 X126.608 Y26.728 E.01447
G1 X126.248 Y27.017 E.01447
G1 X125.805 Y27.229 E.0154
G1 X125.308 Y27.338 E.01595
G1 X124.8 Y27.331 E.01593
G1 X124.184 Y27.141 E.02021
G1 X124.063 Y27.083 E.00421
G1 X123.653 Y26.781 E.01597
G1 X123.323 Y26.393 E.01597
G1 X123.077 Y25.903 E.01719
G1 X122.972 Y25.386 E.01654
G1 X122.986 Y24.925 E.01446
G1 X123.098 Y24.477 E.01448
G1 X123.304 Y24.064 E.01447
G1 X123.593 Y23.704 E.01447
G1 X123.858 Y23.493 E.01062
M204 S1000
G1 X124.245 Y23.691 F10800
M204 S800
;TYPE:External perimeter
G1 F1200
G1 X124.478 Y23.572 E.0082
G1 X124.976 Y23.463 E.01598
G1 X125.405 Y23.484 E.01347
G1 X125.779 Y23.594 E.01222
G1 X126.216 Y23.857 E.01599
G1 X126.518 Y24.176 E.01377
G1 X126.757 Y24.626 E.01598
G1 X126.852 Y25.046 E.0135
G1 X126.848 Y25.427 E.01195
G1 X126.761 Y25.797 E.01192
G1 X126.598 Y26.141 E.01194
G1 X126.364 Y26.441 E.01193
G1 X126.071 Y26.684 E.01194
G1 X125.724 Y26.86 E.0122
G1 X125.224 Y26.971 E.01606
G1 X124.787 Y26.946 E.01372
G1 X124.264 Y26.765 E.01735
G1 X123.94 Y26.537 E.01242
G1 X123.61 Y26.149 E.01597
G1 X123.427 Y25.759 E.01351
G1 X123.35 Y25.386 E.01194
G1 X123.354 Y25.006 E.01192
G1 X123.44 Y24.635 E.01194
G1 X123.604 Y24.292 E.01192
G1 X123.838 Y23.992 E.01193
G1 X124.13 Y23.749 E.01191
G1 X124.191 Y23.718 E.00215
M204 S1000
;WIPE_START
G1 F8640
G1 X124.245 Y23.691 E-.01394
G1 X124.478 Y23.572 E-.06041
G1 X124.976 Y23.463 E-.11771
G1 X125.405 Y23.484 E-.09918
G1 X125.779 Y23.594 E-.09002
G1 X126.216 Y23.857 E-.11777
G1 X126.518 Y24.176 E-.10143
G1 X126.757 Y24.626 E-.11765
G1 X126.835 Y24.972 E-.08189
;WIPE_END
G1 Z.6 F720
G1 X85.889 Y72.383 F10800
G1 Z.2 F720
G1 E.8 F2100
M204 S800
;TYPE:Perimeter
G1 F1200
G1 X85.985 Y73.155 E.02439
G1 X85.907 Y73.992 E.02636
G1 X85.652 Y74.792 E.02633
G1 X85.23 Y75.518 E.02633
G1 X84.662 Y76.137 E.02634
G1 X83.974 Y76.619 E.02634
G1 X83.199 Y76.943 E.02634
G1 X82.372 Y77.091 E.02634
G1 X81.533 Y77.059 E.02633
G1 X80.72 Y76.847 E.02634
G1 X79.972 Y76.466 E.02632
G1 X79.323 Y75.932 E.02635
G1 X78.804 Y75.271 E.02635
G1 X78.44 Y74.515 E.02631
G1 X78.246 Y73.697 E.02636
G1 X78.233 Y73.576 E.00382
G1 X78.233 Y72.857 E.02254
G1 X78.4 Y72.034 E.02633
G1 X78.741 Y71.266 E.02635
G1 X79.224 Y70.607 E.02562
G1 X79.868 Y70.038 E.02694
G1 X80.606 Y69.631 E.02643
G1 X81.412 Y69.393 E.02635
G1 X82.25 Y69.335 E.02634
G1 X83.081 Y69.457 E.02633
G1 X83.866 Y69.756 E.02634
G1 X84.569 Y70.216 E.02634
G1 X85.156 Y70.817 E.02634
G1 X85.6 Y71.53 E.02634
G1 X85.881 Y72.322 E.02635
G1 X85.881 Y72.324 E.00006
M204 S1000
G1 X85.546 Y72.634 F10800
M204 S800
;TYPE:External perimeter
G1 F1200
G1 X85.61 Y73.196 E.01773
G1 X85.532 Y73.951 E.0238
G1 X85.294 Y74.671 E.02378
G1 X84.907 Y75.324 E.0238
G1 X84.388 Y75.878 E.0238
G1 X83.763 Y76.307 E.02377
G1 X83.059 Y76.592 E.02381
G1 X82.311 Y76.719 E.02379
G1 X81.553 Y76.683 E.02379
G1 X80.821 Y76.484 E.02378
G1 X80.148 Y76.132 E.02381
G1 X79.567 Y75.644 E.02379
G1 X79.104 Y75.043 E.02379
G1 X78.782 Y74.356 E.02379
G1 X78.61 Y73.576 E.02504
G1 X78.61 Y72.857 E.02254
G1 X78.769 Y72.115 E.02379
G1 X79.083 Y71.425 E.02377
G1 X79.525 Y70.835 E.02311
G1 X80.114 Y70.324 E.02445
G1 X80.783 Y69.964 E.02382
G1 X81.513 Y69.757 E.02379
G1 X82.27 Y69.711 E.02378
G1 X83.02 Y69.83 E.02381
G1 X83.726 Y70.106 E.02377
G1 X84.357 Y70.529 E.02382
G1 X84.882 Y71.076 E.02377
G1 X85.277 Y71.724 E.02379
G1 X85.524 Y72.442 E.02381
G1 X85.539 Y72.574 E.00417
M204 S1000
;WIPE_START
G1 F8640
G1 X85.546 Y72.634 E-.01395
G1 X85.61 Y73.196 E-.13061
G1 X85.532 Y73.951 E-.17526
G1 X85.294 Y74.671 E-.1751
G1 X84.907 Y75.324 E-.17527
G1 X84.523 Y75.734 E-.12981
;WIPE_END
G1 Z.6 F720
G1 X18.785 Y25.734 F10800
G1 Z.2 F720
M73 P0 R261
G1 E.8 F2100
M204 S800
;TYPE:Perimeter
;WIDTH:0.420692
G1 F1200
G1 X18.728 Y25.276 E.0145
;WIDTH:0.41767
G1 X18.76 Y24.764 E.01599
;WIDTH:0.419999
G1 X18.903 Y24.291 E.01549
G1 X19.308 Y23.649 E.0238
G1 X19.712 Y23.278 E.0172
;WIDTH:0.426397
G1 X20.374 Y22.945 E.02363
G1 X20.912 Y22.849 E.01743
;WIDTH:0.412783
G1 X21.551 Y22.882 E.01968
;WIDTH:0.419999
G1 X22.131 Y23.069 E.01911
G1 X22.597 Y23.359 E.01721
G1 X23.093 Y23.911 E.02327
G1 X23.341 Y24.397 E.01711
G1 X23.464 Y24.898 E.01617
G1 X23.478 Y25.413 E.01615
G1 X23.38 Y25.92 E.01619
G1 X23.175 Y26.393 E.01616
G1 X22.874 Y26.812 E.01618
G1 X22.49 Y27.155 E.01614
G1 X21.826 Y27.485 E.02325
G1 X21.291 Y27.594 E.01712
G1 X20.775 Y27.579 E.01619
