; generated by PrusaSlicer 2.7.0+win64 on 2023-12-05 at 07:26:36 UTC


;
;
; 

; external perimeters extrusion width = 0.45mm
; perimeters extrusion width = 0.45mm
; infill extrusion width = 0.45mm
; solid infill extrusion width = 0.45mm
; top infill extrusion width = 0.40mm
; first layer extrusion width = 0.42mm

M73 P0 R303
M73 Q0 S311
M201 X1000 Y1000 Z200 E5000 ; sets maximum accelerations, mm/sec^2
M203 X200 Y200 Z12 E120 ; sets maximum feedrates, mm / sec
M204 S1250 T1250 ; sets acceleration (S) and retract acceleration (R), mm/sec^2
M205 X8.00 Y8.00 Z0.40 E4.50 ; sets the jerk limits, mm/sec
M205 S0 T0 ; sets the minimum extruding and travel feed rate, mm/sec

; printing object PS3WT_top_v2.stl id:0 copy 0
; stop printing object PS3WT_top_v2.stl id:0 copy 0

;TYPE:Custom
M862.3 P "MK3S" ; printer model check
M862.1 P0.4 ; nozzle diameter check
M115 U3.11.0 ; tell printer latest fw version
G90 ; use absolute coordinates
M83 ; extruder relative mode
M104 S215 ; set extruder temp
M140 S60 ; set bed temp
M190 S60 ; wait for bed temp
M109 S215 ; wait for extruder temp
G28 W ; home all without mesh bed level
G80 ; mesh bed leveling

G1 Z0.2 F720
G1 Y-3 F1000 ; go outside print area
G92 E0
G1 X60 E9 F1000 ; intro line
G1 X100 E12.5 F1000 ; intro line

G92 E0
M221 S95

; Don't change E values below. Excessive value can damage the printer.
M907 E430 ; set extruder motor current
G21 ; set units to millimeters
G90 ; use absolute coordinates
M83 ; use relative distances for extrusion
M900 K0.05 ; Filament gcode LA 1.5
M900 K30 ; Filament gcode LA 1.0
M107
;LAYER_CHANGE
;Z:0.2
;HEIGHT:0.2
;BEFORE_LAYER_CHANGE
G92 E0.0
;0.2


G1 E-.8 F2100
G1 Z.2 F720
;AFTER_LAYER_CHANGE
;0.2
G1 X15.06 Y47.892 F10800
G1 Z.2 F720
G1 E.8 F2100
M204 S800
;TYPE:Skirt/Brim
;WIDTH:0.42
G1 F1200
G1 X16 Y47.698 E.03009
G1 X234 Y47.698 E6.83524
G1 X235.307 Y48.09 E.04278
G1 X236.183 Y49.135 E.04275
G1 X236.377 Y50.075 E.03009
G1 X236.377 Y159.925 E3.44427
G1 X235.985 Y161.232 E.04278
G1 X234.94 Y162.108 E.04275
G1 X234 Y162.302 E.03009
G1 X16 Y162.302 E6.83524
G1 X14.693 Y161.911 E.04277
G1 X13.817 Y160.865 E.04278
G1 X13.623 Y159.925 E.03009
G1 X13.623 Y50.075 E3.44427
G1 X14.015 Y48.768 E.04278
G1 X15.014 Y47.93 E.04088
M204 S1000
; printing object PS3WT_top_v2.stl id:0 copy 0
;WIPE_START
G1 F8640
G1 X15.06 Y47.892 E-.01378
G1 X16 Y47.698 E-.22162
G1 X18.445 Y47.698 E-.5646
;WIPE_END
G1 Z.6 F720
G1 X51.471 Y54.799 F10800
G1 Z.2 F720
G1 E.8 F2100
M204 S800
;TYPE:Perimeter
;WIDTH:0.526538
G1 F1200
G1 X51.162 Y54.574 E.01537
G1 X50.949 Y54.567 E.00857
;WIDTH:0.531759
G1 X50.42 Y54.585 E.02151
G1 X50.356 Y54.61 E.00279
;WIDTH:0.506592
G1 X50.292 Y54.634 E.00264
;WIDTH:0.481425
G1 X50.031 Y54.74 E.01027
;WIDTH:0.450753
G1 X49.77 Y54.845 E.00954
;WIDTH:0.419999
G1 X49.647 Y54.737 E.00513
G1 X49.493 Y54.666 E.00532
;WIDTH:0.422998
G1 X48.991 Y54.531 E.01643
G1 X48.461 Y54.513 E.01676
;WIDTH:0.419999
G1 X47.993 Y54.693 E.01572
G1 X47.901 Y54.843 E.00552
G1 X47.859 Y55.022 E.00576
G1 X47.8 Y55.686 E.0209
G1 X47.456 Y55.761 E.01104
G1 X46.878 Y55.779 E.01813
G1 X45.005 Y55.766 E.05873
G1 X44.493 Y55.708 E.01616
G1 X44.456 Y55.479 E.00727
G1 X44.427 Y54.816 E.02081
G1 X44.423 Y53.933 E.02769
G1 X44.483 Y53.095 E.02634
G1 X44.565 Y53.063 E.00276
G1 X45 Y53.019 E.01371
G1 X46.677 Y53.013 E.05258
G1 X47.19 Y53.029 E.01609
G1 X47.79 Y53.089 E.01891
G1 X47.821 Y53.205 E.00376
G1 X47.887 Y53.786 E.01833
G1 X47.996 Y53.987 E.00717
G1 X48.468 Y54.171 E.01588
;WIDTH:0.42174
G1 X49.111 Y54.13 E.02029
G1 X49.621 Y53.962 E.01691
;WIDTH:0.419999
G1 X49.77 Y53.839 E.00606
G1 X49.919 Y53.906 E.00512
;WIDTH:0.457253
G1 X50.086 Y53.97 E.00616
;WIDTH:0.494506
G1 X50.253 Y54.034 E.00672
;WIDTH:0.531759
G1 X50.42 Y54.098 E.00727
G1 X51.162 Y54.109 E.03016
;WIDTH:0.526538
G1 X51.321 Y53.976 E.00834
;WIDTH:0.49736
G1 X51.481 Y53.843 E.00786
;WIDTH:0.468181
G1 X51.526 Y53.73 E.0043
G1 X51.5 Y53.849 E.00431
;WIDTH:0.49736
G1 X51.485 Y54.324 E.01796
;WIDTH:0.526538
G1 X51.473 Y54.739 E.0167
M204 S1000
;WIPE_START
G1 F8640
G1 X51.471 Y54.799 E-.01386
G1 X51.162 Y54.574 E-.08826
G1 X50.949 Y54.567 E-.04921
;WIPE_END
G1 E-.64867 F2100
G1 Z.6 F720
G1 X51.621 Y53.46 F10800
G1 Z.2 F720
G1 E.8 F2100
M204 S800
;WIDTH:0.508898
G1 F1200
G1 X51.621 Y53.145 E.01221
G1 X51.698 Y53.107 E.00333
;WIDTH:0.45945
G1 X51.775 Y53.069 E.00297
;WIDTH:0.410002
G1 X51.852 Y53.032 E.00261
;WIDTH:0.360554
G1 X52.207 Y52.997 E.00942
;WIDTH:0.364198
G1 X53.916 Y52.99 E.04566
G1 X54.385 Y53.012 E.01254
;WIDTH:0.349855
G1 X54.56 Y53.054 E.00459
G1 X54.573 Y53.318 E.00675
G1 X54.433 Y53.318 E.00357
;WIDTH:0.364198
G1 X52.215 Y53.314 E.05925
;WIDTH:0.409134
G1 X52.071 Y53.316 E.00439
;WIDTH:0.459016
G1 X51.928 Y53.318 E.00495
;WIDTH:0.508898
G1 X51.784 Y53.321 E.00558
G1 X51.667 Y53.421 E.00596
M204 S1000
;WIPE_START
G1 F8640
G1 X51.621 Y53.46 E-.01393
G1 X51.621 Y53.145 E-.07273
G1 X51.698 Y53.107 E-.01983
;WIPE_END
G1 E-.69351 F2100
G1 Z.6 F720
G1 X51.592 Y55.092 F10800
G1 Z.2 F720
G1 E.8 F2100
M204 S800
;WIDTH:0.4318
G1 F1200
G1 X51.85 Y55.349 E.01178
;WIDTH:0.424986
G1 X52.09 Y55.393 E.00775
;WIDTH:0.418788
G1 X54.185 Y55.397 E.06548
;WIDTH:0.413154
G1 X54.558 Y55.39 E.01148
;WIDTH:0.401089
G1 X54.551 Y55.713 E.00962
;WIDTH:0.413154
G1 X54.197 Y55.767 E.01102
;WIDTH:0.418788
G1 X52.649 Y55.775 E.04838
G1 X52.082 Y55.756 E.01773
;WIDTH:0.424986
G1 X51.587 Y55.684 E.01589
;WIDTH:0.4318
G1 X51.55 Y55.051 E.0205
M204 S1000
;WIPE_START
G1 F8640
G1 X51.592 Y55.092 E-.01355
G1 X51.85 Y55.349 E-.08409
;WIPE_END
G1 E-.70236 F2100
G1 Z.6 F720
G1 X49.69 Y56.74 F10800
G1 Z.2 F720
G1 E.8 F2100
M204 S800
;WIDTH:0.419999
G1 F1200
G1 X49.919 Y57.107 E.01356
G1 X50.222 Y57.395 E.01311
G1 X50.697 Y57.646 E.01684
G1 X51.433 Y57.821 E.02372
;WIDTH:0.406803
G1 X51.349 Y57.82 E.00254
;WIDTH:0.419999
G1 X47.89 Y57.824 E.10845
G1 X48.575 Y57.68 E.02195
G1 X48.969 Y57.51 E.01345
G1 X49.285 Y57.292 E.01204
G1 X49.547 Y57.011 E.01205
G1 X49.662 Y56.793 E.00773
M204 S1000
;WIPE_START
G1 F8640
G1 X49.69 Y56.74 E-.01384
G1 X49.919 Y57.107 E-.09989
G1 X50.222 Y57.395 E-.09653
G1 X50.697 Y57.646 E-.12405
G1 X51.433 Y57.821 E-.17468
;WIPE_END
G1 E-.29101 F2100
G1 Z.6 F720
G1 X56.746 Y53.796 F10800
G1 Z.2 F720
G1 E.8 F2100
M204 S800
;WIDTH:0.476729
G1 F1200
G1 X56.792 Y53.891 E.00381
;WIDTH:0.493528
G1 X57.175 Y54.678 E.03279
G1 X57.334 Y54.954 E.01193
;WIDTH:0.456764
G1 X57.493 Y55.231 E.01099
;WIDTH:0.419999
G1 X58.613 Y57.474 E.07861
;WIDTH:0.445842
G1 X59.119 Y57.8 E.02017
G1 X58.403 Y57.813 E.02399
;WIDTH:0.419999
G1 X55.628 Y57.813 E.08701
;WIDTH:0.447881
G1 X55.375 Y57.799 E.00853
;WIDTH:0.475762
G1 X55.121 Y57.785 E.00916
G1 X55.357 Y57.694 E.0091
;WIDTH:0.447881
G1 X55.594 Y57.603 E.00855
;WIDTH:0.419999
G1 X55.991 Y57.378 E.01431
G1 X56.399 Y56.956 E.0184
G1 X56.603 Y56.584 E.0133
G1 X56.741 Y56.078 E.01644
G1 X56.785 Y55.432 E.0203
;WIDTH:0.456764
G1 X56.771 Y55.137 E.01016
;WIDTH:0.493528
G1 X56.757 Y54.843 E.01103
G1 X56.559 Y54.38 E.01887
;WIDTH:0.476729
G1 X56.728 Y53.853 E.01996
M204 S1000
;WIPE_START
G1 F8640
G1 X56.746 Y53.796 E-.0138
G1 X56.792 Y53.891 E-.02437
;WIPE_END
G1 E-.76183 F2100
G1 Z.6 F720
G1 X57.829 Y51.187 F10800
G1 Z.2 F720
G1 E.8 F2100
M204 S800
;WIDTH:0.419999
G1 F1200
G1 X61.341 Y51.187 E.11012
G1 X61.147 Y51.337 E.00769
G1 X59.951 Y53.983 E.09104
G1 X59.662 Y54.802 E.02723
G1 X59.586 Y54.525 E.00901
G1 X59.358 Y53.993 E.01815
G1 X58.053 Y51.327 E.09307
G1 X57.88 Y51.219 E.00639
M204 S1000
;WIPE_START
G1 F8640
G1 X57.829 Y51.187 E-.0139
G1 X61.233 Y51.187 E-.7861
;WIPE_END
G1 Z.6 F720
G1 X62.991 Y51.187 F10800
G1 Z.2 F720
G1 E.8 F2100
M204 S800
G1 F1200
G1 X66.303 Y51.187 E.10385
G1 X66.091 Y51.352 E.00842
G1 X64.905 Y54.013 E.09135
G1 X64.676 Y54.703 E.02279
G1 X64.637 Y54.547 E.00504
G1 X64.434 Y54.019 E.01774
G1 X63.223 Y51.337 E.09227
G1 X63.041 Y51.22 E.00678
M204 S1000
;WIPE_START
G1 F8640
G1 X62.991 Y51.187 E-.01383
G1 X66.303 Y51.187 E-.76475
G1 X66.23 Y51.244 E-.02142
;WIPE_END
G1 Z.6 F720
G1 X67.788 Y52.846 F10800
G1 Z.2 F720
G1 E.8 F2100
M204 S800
G1 F1200
G1 X68.515 Y53.054 E.02371
G1 X69.016 Y53.111 E.01581
G1 X69.97 Y53.117 E.02991
G1 X69.97 Y57.221 E.12868
;WIDTH:0.445842
G1 X70.536 Y57.8 E.02713
G1 X69.379 Y57.813 E.03877
;WIDTH:0.419999
G1 X66 Y57.813 E.10595
;WIDTH:0.45461
G1 X65.358 Y57.796 E.02198
G1 X65.771 Y57.457 E.01829
;WIDTH:0.419999
G1 X67.417 Y53.859 E.12406
G1 X67.767 Y52.902 E.03195
M204 S1000
;WIPE_START
G1 F8640
G1 X67.788 Y52.846 E-.01381
G1 X68.515 Y53.054 E-.1746
G1 X69.016 Y53.111 E-.11643
G1 X69.97 Y53.117 E-.22029
G1 X69.97 Y54.308 E-.27487
;WIPE_END
G1 Z.6 F720
G1 X62.18 Y54.186 F10800
G1 Z.2 F720
G1 E.8 F2100
M204 S800
G1 F1200
G1 X62.211 Y54.311 E.00404
G1 X62.409 Y54.835 E.01756
G1 X63.588 Y57.454 E.09005
;WIDTH:0.445842
G1 X64.104 Y57.8 E.02081
G1 X63.356 Y57.813 E.02506
;WIDTH:0.419999
G1 X61.014 Y57.813 E.07343
;WIDTH:0.45461
G1 X60.367 Y57.796 E.02216
G1 X60.782 Y57.454 E.01841
;WIDTH:0.419999
G1 X61.962 Y54.835 E.09007
G1 X62.161 Y54.243 E.01958
M204 S1000
;WIPE_START
G1 F8640
G1 X62.18 Y54.186 E-.01387
G1 X62.211 Y54.311 E-.02974
G1 X62.409 Y54.835 E-.12934
G1 X63.524 Y57.311 E-.62705
;WIPE_END
G1 Z.6 F720
G1 X49.699 Y51.859 F10800
G1 Z.2 F720
G1 E.8 F2100
M204 S800
;WIDTH:0.528944
G1 F1200
G1 X49.417 Y51.535 E.01736
G1 X49.009 Y51.242 E.0203
G1 X50.336 Y51.242 E.05363
G1 X50.09 Y51.412 E.01208
G1 X49.739 Y51.813 E.02154
M204 S1000
;WIPE_START
G1 F8640
G1 X49.699 Y51.859 E-.01408
G1 X49.417 Y51.535 E-.09918
G1 X49.009 Y51.242 E-.11598
G1 X50.336 Y51.242 E-.30641
G1 X50.09 Y51.412 E-.06905
G1 X49.739 Y51.813 E-.12305
;WIPE_END
G1 E-.07225 F2100
G1 Z.6 F720
G1 X51.915 Y54.905 F10800
G1 Z.2 F720
G1 E.8 F2100
M204 S800
;TYPE:External perimeter
;WIDTH:0.420081
G1 F1200
G1 X51.905 Y53.81 E.03434
G1 X51.945 Y53.728 E.00286
;WIDTH:0.419999
G1 X52.09 Y53.66 E.00502
G1 X54.685 Y53.66 E.08136
G1 X54.896 Y53.615 E.00676
G1 X54.925 Y53.1 E.01617
G1 X54.816 Y52.792 E.01024
G1 X54.454 Y52.673 E.01195
G1 X53.931 Y52.641 E.01643
G1 X52.192 Y52.651 E.05453
G1 X51.683 Y52.694 E.01602
G1 X51.296 Y52.78 E.01243
G1 X51.216 Y52.932 E.00539
G1 X51.189 Y53.437 E.01586
G1 X51.147 Y53.62 E.00589
G1 X50.977 Y53.703 E.00593
G1 X50.446 Y53.666 E.01669
G1 X49.978 Y53.522 E.01535
G1 X49.893 Y53.36 E.00574
;WIDTH:0.437087
G1 X49.9 Y52.647 E.02337
G1 X50.051 Y52.121 E.01794
;WIDTH:0.419999
G1 X50.409 Y51.703 E.01726
G1 X50.806 Y51.489 E.01414
;WIDTH:0.459139
G1 X51.042 Y51.406 E.00866
;WIDTH:0.498279
G1 X51.279 Y51.323 E.00951
G1 X51.841 Y51.269 E.02138
;WIDTH:0.475613
G1 X51.86 Y51.269 E.00068
;WIDTH:0.474337
G1 X52.939 Y51.252 E.03871
;WIDTH:0.464953
G1 X53.65 Y51.255 E.02495
;WIDTH:0.465518
G1 X53.664 Y51.255 E.00049
;WIDTH:0.508352
G1 X54.833 Y51.319 E.04531
G1 X55.152 Y51.444 E.01326
;WIDTH:0.464176
G1 X55.471 Y51.569 E.012
;WIDTH:0.421792
G1 X55.775 Y51.772 E.01152
;WIDTH:0.423882
G1 X55.987 Y52.042 E.01087
G1 X56.221 Y52.505 E.01643
;WIDTH:0.453485
G1 X56.381 Y53.018 E.01835
G1 X56.387 Y53.547 E.01806
M73 P0 R302
;WIDTH:0.419999
G1 X56.21 Y54.171 E.02034
G1 X56.059 Y54.304 E.00631
G1 X55.903 Y54.344 E.00505
G1 X56.068 Y54.4 E.00546
G1 X56.169 Y54.501 E.00448
G1 X56.368 Y54.998 E.01679
G1 X56.409 Y55.497 E.0157
G1 X56.365 Y56.047 E.0173
G1 X56.26 Y56.428 E.01239
G1 X56.116 Y56.706 E.00982
G1 X55.796 Y57.055 E.01485
G1 X55.473 Y57.246 E.01177
G1 X55.046 Y57.387 E.0141
G1 X54.353 Y57.488 E.02196
G1 X53.176 Y57.518 E.03692
G1 X51.86 Y57.495 E.04127
G1 X51.443 Y57.45 E.01315
G1 X50.792 Y57.281 E.02109
G1 X50.47 Y57.11 E.01143
G1 X50.177 Y56.816 E.01301
G1 X50.021 Y56.569 E.00916
;WIDTH:0.443577
G1 X49.898 Y56.15 E.01455
G1 X49.893 Y55.324 E.02752
;WIDTH:0.420081
G1 X49.977 Y55.162 E.00572
G1 X50.45 Y55.017 E.01552
G1 X50.978 Y54.981 E.0166
G1 X51.147 Y55.064 E.0059
G1 X51.21 Y55.735 E.02114
G1 X51.284 Y55.972 E.00779
G1 X51.395 Y56.034 E.00399
G1 X52.032 Y56.125 E.02018
G1 X52.637 Y56.152 E.01899
G1 X54.222 Y56.14 E.04971
G1 X54.697 Y56.051 E.01516
G1 X54.869 Y55.937 E.00647
G1 X54.922 Y55.675 E.00838
G1 X54.905 Y55.197 E.015
G1 X54.848 Y55.038 E.0053
G1 X52.09 Y55.023 E.0865
G1 X52.01 Y55.005 E.00257
G1 X51.956 Y54.948 E.00246
M204 S1000
;WIPE_START
G1 F8640
G1 X51.915 Y54.905 E-.01372
G1 X51.905 Y53.81 E-.25285
G1 X51.945 Y53.728 E-.02107
;WIPE_END
G1 E-.51236 F2100
G1 Z.6 F720
M73 Q0 S310
G1 X51.526 Y53.73 F10800
G1 Z.2 F720
G1 E.8 F2100
M204 S800
;TYPE:Perimeter
;WIDTH:0.474539
G1 F1200
G1 X51.573 Y53.595 E.00513
;WIDTH:0.507258
G1 X51.621 Y53.46 E.00553
M204 S1000
;WIPE_START
G1 F8640
G1 X51.573 Y53.595 E-.03308
;WIPE_END
G1 E-.76692 F2100
G1 Z.6 F720
G1 X51.433 Y57.821 F10800
G1 Z.2 F720
G1 E.8 F2100
M204 S800
;WIDTH:0.403312
G1 F1200
G1 X51.854 Y57.842 E.01263
;WIDTH:0.361208
G1 X53.17 Y57.854 E.03483
;WIDTH:0.337512
G1 X53.194 Y57.854 E.00059
;WIDTH:0.368442
G1 X54.363 Y57.839 E.03164
;WIDTH:0.403343
G1 X54.61 Y57.821 E.00742
;WIDTH:0.438244
G1 X54.857 Y57.804 E.00814
;WIDTH:0.473144
G1 X55.105 Y57.786 E.0089
;WIDTH:0.475762
G1 X55.121 Y57.785 E.00058
M204 S1000
;WIPE_START
G1 F8640
G1 X55.105 Y57.786 E-.0037
;WIPE_END
G1 E-.7963 F2100
G1 Z.6 F720
G1 X28.017 Y53.05 F10800
G1 Z.2 F720
G1 E.8 F2100
M204 S800
;WIDTH:0.419999
G1 F1200
G1 X28.554 Y53.6 E.0241
G1 X28.999 Y54.313 E.02635
G1 X29.28 Y55.105 E.02635
G1 X29.384 Y55.939 E.02635
G1 X29.306 Y56.775 E.02633
G1 X29.112 Y57.393 E.02031
G1 X28.999 Y57.686 E.00985
G1 X28.629 Y58.302 E.02253
G1 X28.061 Y58.921 E.02634
G1 X27.373 Y59.403 E.02634
G1 X26.598 Y59.726 E.02633
G1 X25.771 Y59.875 E.02635
G1 X25.234 Y59.859 E.01684
G1 X24.811 Y59.823 E.01331
G1 X24.119 Y59.631 E.02252
G1 X23.371 Y59.249 E.02633
G1 X22.722 Y58.715 E.02635
G1 X22.203 Y58.055 E.02633
G1 X21.839 Y57.298 E.02634
G1 X21.645 Y56.481 E.02633
G1 X21.632 Y55.641 E.02634
G1 X21.8 Y54.818 E.02634
G1 X22.14 Y54.05 E.02633
G1 X22.638 Y53.373 E.02635
G1 X23.27 Y52.82 E.02633
G1 X24.006 Y52.414 E.02635
G1 X24.811 Y52.177 E.02631
G1 X25.649 Y52.118 E.02634
G1 X26.48 Y52.241 E.02634
G1 X27.265 Y52.54 E.02634
G1 X27.968 Y53 E.02634
G1 X27.975 Y53.007 E.00031
M204 S1000
G1 X27.756 Y53.312 F10800
M204 S800
;TYPE:External perimeter
G1 F1200
G1 X28.281 Y53.859 E.02377
G1 X28.676 Y54.508 E.02382
G1 X28.923 Y55.226 E.02381
G1 X29.009 Y55.98 E.02379
G1 X28.932 Y56.734 E.02376
G1 X28.755 Y57.273 E.01779
G1 X28.676 Y57.492 E.0073
G1 X28.306 Y58.107 E.0225
G1 X27.787 Y58.661 E.0238
G1 X27.162 Y59.091 E.02379
G1 X26.458 Y59.376 E.02381
G1 X25.71 Y59.503 E.02379
G1 X24.952 Y59.466 E.02379
G1 X24.22 Y59.268 E.02378
G1 X23.548 Y58.916 E.02379
G1 X22.966 Y58.428 E.02381
G1 X22.504 Y57.827 E.02377
G1 X22.181 Y57.14 E.0238
G1 X22.014 Y56.4 E.02379
G1 X22.009 Y55.641 E.0238
G1 X22.168 Y54.899 E.02379
G1 X22.483 Y54.208 E.02381
G1 X22.938 Y53.602 E.02376
G1 X23.514 Y53.107 E.02381
G1 X24.182 Y52.748 E.02378
G1 X24.912 Y52.54 E.0238
G1 X25.67 Y52.495 E.02381
G1 X26.419 Y52.613 E.02377
G1 X27.126 Y52.89 E.02381
G1 X27.706 Y53.279 E.0219
M204 S1000
;WIPE_START
G1 F8640
G1 X27.756 Y53.312 E-.01383
G1 X28.281 Y53.859 E-.17507
G1 X28.676 Y54.508 E-.17543
G1 X28.923 Y55.226 E-.17532
G1 X29.009 Y55.98 E-.17523
G1 X28.971 Y56.347 E-.08512
;WIPE_END
G1 Z.6 F720
G1 X28.59 Y156.344 F10800
G1 Z.2 F720
G1 E.8 F2100
M204 S800
;TYPE:Perimeter
G1 F1200
G1 X28.061 Y156.921 E.02454
G1 X27.373 Y157.403 E.02634
G1 X26.486 Y157.758 E.02996
G1 X25.771 Y157.875 E.02272
G1 X24.932 Y157.843 E.02633
G1 X24.119 Y157.631 E.02634
G1 X23.371 Y157.249 E.02633
G1 X22.722 Y156.715 E.02635
G1 X22.203 Y156.055 E.02633
G1 X21.839 Y155.298 E.02634
G1 X21.645 Y154.481 E.02633
G1 X21.632 Y153.641 E.02634
G1 X21.8 Y152.818 E.02634
G1 X22.14 Y152.05 E.02633
G1 X22.638 Y151.373 E.02635
G1 X23.27 Y150.82 E.02633
G1 X24.006 Y150.414 E.02635
G1 X24.811 Y150.177 E.02631
G1 X25.649 Y150.118 E.02634
G1 X26.48 Y150.241 E.02634
G1 X27.265 Y150.54 E.02634
G1 X27.968 Y151 E.02634
G1 X28.556 Y151.602 E.02639
G1 X28.999 Y152.314 E.02629
G1 X29.28 Y153.105 E.02632
G1 X29.384 Y153.939 E.02635
G1 X29.306 Y154.775 E.02633
G1 X29.051 Y155.575 E.02633
G1 X28.63 Y156.3 E.02629
M204 S1000
G1 X28.169 Y156.254 F10800
M204 S800
