; generated by PrusaSlicer 2.6.0+win64 on 2023-09-10 at 06:03:08 UTC


;
;
; 

; external perimeters extrusion width = 0.45mm
; perimeters extrusion width = 0.45mm
; infill extrusion width = 0.45mm
; solid infill extrusion width = 0.45mm
; top infill extrusion width = 0.40mm
; first layer extrusion width = 0.42mm

M73 P0 R240
M73 Q0 S245
M201 X1000 Y1000 Z200 E5000 ; sets maximum accelerations, mm/sec^2
M203 X200 Y200 Z12 E120 ; sets maximum feedrates, mm / sec
M204 S1250 T1250 ; sets acceleration (S) and retract acceleration (R), mm/sec^2
M205 X8.00 Y8.00 Z0.40 E4.50 ; sets the jerk limits, mm/sec
M205 S0 T0 ; sets the minimum extruding and travel feed rate, mm/sec
;TYPE:Custom
M862.3 P "MK3S" ; printer model check
M862.1 P0.4 ; nozzle diameter check
M115 U3.11.0 ; tell printer latest fw version
G90 ; use absolute coordinates
M83 ; extruder relative mode
M104 S215 ; set extruder temp
M140 S60 ; set bed temp
M190 S60 ; wait for bed temp
M109 S215 ; wait for extruder temp
G28 W ; home all without mesh bed level
G80 ; mesh bed leveling

G1 Z0.2 F720
G1 Y-3 F1000 ; go outside print area
G92 E0
G1 X60 E9 F1000 ; intro line
G1 X100 E12.5 F1000 ; intro line

G92 E0
M221 S95

; Don't change E values below. Excessive value can damage the printer.
M907 E430 ; set extruder motor current
G21 ; set units to millimeters
G90 ; use absolute coordinates
M83 ; use relative distances for extrusion
M900 K0.05 ; Filament gcode LA 1.5
M900 K30 ; Filament gcode LA 1.0
M107
;LAYER_CHANGE
;Z:0.2
;HEIGHT:0.2
;BEFORE_LAYER_CHANGE
G92 E0.0
;0.2


M73 P0 R239
M73 Q0 S244
G1 E-.8 F2100
G1 Z.4 F720
;AFTER_LAYER_CHANGE
;0.2
G1 X35.515 Y34.464 F10800
G1 Z.2 F720
G1 E.8 F2100
M204 S800
;TYPE:Skirt/Brim
;WIDTH:0.42
G1 F1200
G1 X36.56 Y33.588 E.04275
G1 X37.5 Y33.394 E.03009
G1 X212.5 Y33.394 E5.487
G1 X213.807 Y33.786 E.04278
G1 X214.683 Y34.832 E.04278
G1 X214.877 Y35.771 E.03006
G1 X214.877 Y174.229 E4.34125
G1 X214.485 Y175.536 E.04278
G1 X213.44 Y176.412 E.04275
G1 X212.5 Y176.606 E.03009
G1 X37.5 Y176.606 E5.487
G1 X36.193 Y176.214 E.04278
G1 X35.317 Y175.168 E.04278
G1 X35.123 Y174.229 E.03006
G1 X35.123 Y35.771 E4.34125
G1 X35.497 Y34.522 E.04088
M204 S1000
; printing object RightBot.stl id:0 copy 0
;WIPE_START
G1 F8640
G1 X36.56 Y33.588 E-.32674
G1 X37.5 Y33.394 E-.22162
G1 X38.59 Y33.394 E-.25164
;WIPE_END
G1 Z.6 F720
G1 X45.524 Y37.098 F10800
G1 Z.2 F720
G1 E.8 F2100
M204 S800
;TYPE:Perimeter
;WIDTH:0.419999
G1 F1200
G1 X46.171 Y37.155 E.02036
G1 X47.168 Y37.163 E.03126
G1 X203.098 Y37.163 E4.88907
G1 X203.845 Y37.152 E.02342
G1 X204.474 Y37.1 E.01979
G1 X204.324 Y37.271 E.00713
G1 X204.062 Y37.701 E.01579
G1 X203.874 Y38.174 E.01596
G1 X203.685 Y39.092 E.02939
G1 X203.698 Y40.029 E.02938
G1 X203.912 Y40.942 E.0294
G1 X204.318 Y41.787 E.02939
G1 X204.896 Y42.525 E.02939
G1 X205.618 Y43.122 E.02937
G1 X206.453 Y43.549 E.02941
G1 X207.359 Y43.787 E.02937
G1 X208.296 Y43.824 E.0294
G1 X209.218 Y43.66 E.02936
G1 X210.084 Y43.301 E.02939
G1 X210.853 Y42.764 E.02941
G1 X211.413 Y42.171 E.02557
G1 X211.719 Y41.726 E.01693
G1 X211.719 Y168.276 E3.96788
G1 X211.104 Y167.475 E.03166
G1 X210.382 Y166.878 E.02937
G1 X209.547 Y166.451 E.02941
G1 X208.641 Y166.213 E.02937
G1 X207.704 Y166.176 E.0294
G1 X206.782 Y166.34 E.02936
G1 X205.916 Y166.699 E.02939
G1 X205.148 Y167.236 E.02938
G1 X204.513 Y167.925 E.02938
G1 X204.049 Y168.719 E.02883
G1 X203.754 Y169.628 E.02996
G1 X203.666 Y170.561 E.02938
G1 X203.772 Y171.463 E.02848
G1 X203.917 Y171.951 E.01596
G1 X204.129 Y172.42 E.01614
G1 X204.476 Y172.902 E.01862
G1 X203.833 Y172.845 E.02024
G1 X203.326 Y172.838 E.0159
G1 X48.293 Y172.836 E4.86094
G1 X46.153 Y172.849 E.0671
M73 P0 R238
M73 Q0 S243
G1 X45.526 Y172.9 E.01972
G1 X45.676 Y172.729 E.00713
G1 X45.938 Y172.299 E.01579
G1 X46.126 Y171.826 E.01596
G1 X46.315 Y170.859 E.03089
G1 X46.302 Y169.971 E.02785
G1 X46.088 Y169.058 E.0294
G1 X45.682 Y168.213 E.02939
G1 X45.104 Y167.475 E.02939
G1 X44.382 Y166.878 E.02937
G1 X43.547 Y166.451 E.02941
G1 X42.641 Y166.213 E.02937
G1 X41.704 Y166.176 E.0294
G1 X40.782 Y166.34 E.02936
G1 X39.916 Y166.699 E.02939
G1 X39.147 Y167.236 E.02941
G1 X38.587 Y167.829 E.02557
G1 X38.281 Y168.274 E.01693
G1 X38.281 Y41.724 E3.96788
G1 X38.896 Y42.525 E.03166
G1 X39.618 Y43.122 E.02937
G1 X40.453 Y43.549 E.02941
G1 X41.359 Y43.787 E.02937
G1 X42.296 Y43.824 E.0294
G1 X43.101 Y43.692 E.02558
G1 X43.466 Y43.561 E.01216
G1 X44.084 Y43.301 E.02102
G1 X44.852 Y42.764 E.02938
G1 X45.488 Y42.074 E.02942
G1 X45.96 Y41.261 E.02948
G1 X46.246 Y40.372 E.02928
G1 X46.334 Y39.439 E.02938
G1 X46.246 Y38.628 E.02558
G1 X46.095 Y38.078 E.01788
G1 X45.871 Y37.58 E.01712
G1 X45.559 Y37.147 E.01673
M204 S1000
;WIPE_START
G1 F8640
G1 X46.171 Y37.155 E-.14132
G1 X47.168 Y37.163 E-.23022
G1 X49.024 Y37.163 E-.42846
;WIPE_END
G1 Z.6 F720
G1 X44.375 Y36.586 F10800
G1 Z.2 F720
G1 E.8 F2100
M204 S800
;TYPE:External perimeter
G1 F1200
G1 X44.674 Y36.587 E.00937
G1 X45.66 Y36.737 E.03127
G1 X46.174 Y36.778 E.01617
G1 X47.171 Y36.786 E.03126
G1 X203.09 Y36.786 E4.88872
G1 X203.687 Y36.777 E.01872
G1 X204.325 Y36.738 E.02004
G1 X204.961 Y36.602 E.02039
G1 X205.62 Y36.59 E.02067
G1 X205.135 Y36.997 E.01985
G1 X204.668 Y37.44 E.02018
G1 X204.425 Y37.818 E.01409
G1 X204.242 Y38.255 E.01485
G1 X204.062 Y39.092 E.02684
G1 X204.066 Y39.948 E.02684
G1 X204.255 Y40.784 E.02687
G1 X204.618 Y41.559 E.02683
G1 X205.14 Y42.238 E.02685
G1 X205.795 Y42.788 E.02682
G1 X206.554 Y43.186 E.02687
G1 X207.38 Y43.41 E.02683
G1 X208.235 Y43.452 E.02684
G1 X209.079 Y43.309 E.02684
G1 X209.873 Y42.988 E.02685
G1 X210.579 Y42.504 E.02684
G1 X211.093 Y41.961 E.02344
G1 X211.387 Y41.548 E.0159
G1 X211.559 Y41.206 E.012
;WIDTH:0.441109
G1 X211.735 Y40.715 E.01727
G1 X211.826 Y39.859 E.0285
;WIDTH:0.425663
G1 X211.806 Y38.916 E.03002
;WIDTH:0.439482
G1 X211.733 Y38.285 E.02095
G1 X211.62 Y37.96 E.01135
;WIDTH:0.425888
G1 X211.331 Y37.442 E.01889
;WIDTH:0.419999
G1 X210.857 Y36.99 E.02054
G1 X210.378 Y36.589 E.01959
G1 X211.003 Y36.598 E.0196
G1 X211.495 Y36.715 E.01586
G1 X212.093 Y36.764 E.01881
G1 X212.105 Y37.676 E.0286
;WIDTH:0.439482
G1 X212.127 Y38.244 E.01874
G1 X212.187 Y38.889 E.02136
;WIDTH:0.425663
G1 X212.196 Y39.103 E.00682
;WIDTH:0.41921
G1 X212.198 Y39.954 E.02663
;WIDTH:0.442205
G1 X212.099 Y41.365 E.04696
;WIDTH:0.419999
G1 X212.09 Y167.636 E3.95913
G1 X212.103 Y168.696 E.03324
;WIDTH:0.441109
G1 X212.204 Y170.144 E.04806
;WIDTH:0.425663
G1 X212.187 Y171.124 E.03119
G1 X212.106 Y172.226 E.03517
;WIDTH:0.419999
G1 X212.093 Y173.231 E.03151
G1 X211.657 Y173.261 E.0137
G1 X211.109 Y173.374 E.01754
G1 X210.384 Y173.407 E.02276
G1 X211.274 Y172.616 E.03733
G1 X211.567 Y172.172 E.01668
;WIDTH:0.439482
G1 X211.733 Y171.715 E.01603
G1 X211.823 Y170.894 E.02723
;WIDTH:0.41921
G1 X211.824 Y170.082 E.02541
;WIDTH:0.441109
G1 X211.735 Y169.285 E.02655
G1 X211.592 Y168.865 E.01469
;WIDTH:0.419999
G1 X211.381 Y168.443 E.01479
G1 X210.86 Y167.762 E.02688
G1 X210.205 Y167.212 E.02682
G1 X209.447 Y166.814 E.02684
G1 X208.62 Y166.59 E.02686
G1 X207.765 Y166.548 E.02684
G1 X206.921 Y166.691 E.02684
G1 X206.127 Y167.012 E.02685
G1 X205.421 Y167.496 E.02684
G1 X204.836 Y168.12 E.02682
G1 X204.406 Y168.84 E.02629
G1 X204.129 Y169.669 E.02741
G1 X204.041 Y170.52 E.02682
G1 X204.129 Y171.331 E.02558
G1 X204.245 Y171.755 E.01378
G1 X204.41 Y172.154 E.01354
G1 X204.643 Y172.528 E.01382
G1 X204.968 Y172.862 E.01461
G1 X205.625 Y173.414 E.02691
G1 X205.326 Y173.413 E.00937
G1 X204.34 Y173.263 E.03127
G1 X203.83 Y173.222 E.01604
G1 X203.328 Y173.215 E.01574
G1 X48.293 Y173.214 E4.86101
G1 X46.308 Y173.225 E.06224
G1 X45.675 Y173.262 E.01988
G1 X45.039 Y173.398 E.02039
G1 X44.38 Y173.41 E.02067
G1 X45.21 Y172.683 E.0346
G1 X45.485 Y172.325 E.01415
G1 X45.758 Y171.745 E.0201
G1 X45.938 Y170.859 E.02835
G1 X45.934 Y170.052 E.0253
G1 X45.745 Y169.216 E.02687
G1 X45.382 Y168.441 E.02683
G1 X44.86 Y167.762 E.02685
G1 X44.205 Y167.212 E.02682
G1 X43.446 Y166.814 E.02687
G1 X42.62 Y166.59 E.02683
G1 X41.765 Y166.548 E.02684
G1 X40.921 Y166.691 E.02684
G1 X40.127 Y167.012 E.02685
G1 X39.421 Y167.496 E.02684
G1 X38.907 Y168.039 E.02344
G1 X38.613 Y168.452 E.0159
G1 X38.441 Y168.794 E.012
;WIDTH:0.441109
G1 X38.265 Y169.285 E.01727
G1 X38.174 Y170.141 E.0285
;WIDTH:0.425659
G1 X38.194 Y171.084 E.03002
;WIDTH:0.439466
G1 X38.267 Y171.715 E.02094
G1 X38.381 Y172.039 E.01133
;WIDTH:0.423584
G1 X38.669 Y172.558 E.01879
;WIDTH:0.419999
G1 X39.143 Y173.01 E.02054
G1 X39.622 Y173.411 E.01959
G1 X38.997 Y173.402 E.0196
G1 X38.505 Y173.285 E.01586
G1 X37.907 Y173.236 E.01881
G1 X37.895 Y172.324 E.0286
;WIDTH:0.439466
G1 X37.873 Y171.756 E.01874
G1 X37.804 Y170.897 E.02841
;WIDTH:0.41921
G1 X37.802 Y170.046 E.02663
;WIDTH:0.446638
G1 X37.877 Y169.172 E.02945
G1 X37.901 Y168.635 E.01804
;WIDTH:0.419999
G1 X37.91 Y42.364 E3.95913
G1 X37.897 Y41.304 E.03324
;WIDTH:0.441109
G1 X37.796 Y39.856 E.04806
;WIDTH:0.425664
G1 X37.813 Y38.876 E.03119
G1 X37.894 Y37.774 E.03517
;WIDTH:0.419999
G1 X37.907 Y36.769 E.03151
G1 X38.343 Y36.739 E.0137
G1 X38.891 Y36.626 E.01754
G1 X39.616 Y36.593 E.02276
G1 X38.726 Y37.384 E.03733
G1 X38.433 Y37.828 E.01668
;WIDTH:0.439485
G1 X38.267 Y38.285 E.01603
G1 X38.177 Y39.106 E.02723
;WIDTH:0.419209
G1 X38.176 Y39.918 E.02541
;WIDTH:0.441109
G1 X38.265 Y40.715 E.02655
G1 X38.408 Y41.135 E.01469
;WIDTH:0.419999
G1 X38.619 Y41.557 E.01479
G1 X39.14 Y42.238 E.02688
G1 X39.795 Y42.788 E.02682
G1 X40.553 Y43.186 E.02684
G1 X41.38 Y43.41 E.02686
G1 X42.235 Y43.452 E.02684
G1 X43.04 Y43.32 E.02558
G1 X43.873 Y42.988 E.02812
G1 X44.579 Y42.504 E.02684
G1 X45.164 Y41.88 E.02682
G1 X45.603 Y41.141 E.02695
G1 X45.871 Y40.331 E.02675
G1 X45.959 Y39.48 E.02682
G1 X45.835 Y38.532 E.02998
G1 X45.59 Y37.846 E.02284
G1 X45.357 Y37.472 E.01382
G1 X45.032 Y37.138 E.01461
G1 X44.421 Y36.624 E.02503
M204 S1000
G1 X44.665 Y36.659 F10800
;WIPE_START
G1 F8640
G1 X44.674 Y36.587 E-.05904
G1 X45.66 Y36.737 E-.23029
G1 X46.174 Y36.778 E-.11906
G1 X47.171 Y36.786 E-.23022
G1 X47.87 Y36.786 E-.16139
;WIPE_END
G1 Z.6 F720
G1 X211.695 Y37.111 F10800
G1 Z.2 F720
G1 E.8 F2100
M204 S800
;TYPE:Perimeter
;WIDTH:0.53388
G1 F1200
G1 X211.634 Y37.111 E.00249
G1 X211.603 Y37.164 E.00251
G1 X211.634 Y37.217 E.00251
G1 X211.695 Y37.217 E.00249
G1 X211.726 Y37.164 E.00251
M204 S1000
;WIPE_START
G1 F8640
G1 X211.695 Y37.217 E-.01418
G1 X211.634 Y37.217 E-.01409
G1 X211.603 Y37.164 E-.01418
G1 X211.634 Y37.111 E-.01418
G1 X211.695 Y37.111 E-.01409
;WIPE_END
G1 E-.72928 F2100
G1 Z.6 F720
G1 X194.266 Y51.669 F10800
G1 Z.2 F720
G1 E.8 F2100
M204 S800
;WIDTH:0.419999
G1 F1200
G1 X194.287 Y51.779 E.00351
G1 X194.287 Y158.221 E3.33741
G1 X194.225 Y158.479 E.00832
G1 X194.07 Y158.667 E.00764
G1 X193.819 Y158.779 E.00862
G1 X193.721 Y158.787 E.00308
G1 X183.279 Y158.787 E.3274
G1 X183.009 Y158.719 E.00873
G1 X182.89 Y158.632 E.00462
G1 X182.778 Y158.486 E.00577
G1 X182.713 Y158.221 E.00856
G1 X182.713 Y51.779 E3.33741
G1 X182.778 Y51.514 E.00856
G1 X182.977 Y51.3 E.00916
G1 X183.21 Y51.217 E.00776
G1 X183.279 Y51.213 E.00217
G1 X193.721 Y51.213 E.3274
G1 X193.993 Y51.282 E.0088
G1 X194.185 Y51.454 E.00808
G1 X194.245 Y51.613 E.00533
M204 S1000
G1 X193.91 Y51.779 F10800
M204 S800
;TYPE:External perimeter
G1 F1200
G1 X193.91 Y158.221 E3.33741
G1 X193.851 Y158.358 E.00468
M73 P0 R237
M73 Q0 S242
G1 X193.721 Y158.41 E.00439
G1 X183.279 Y158.41 E.3274
G1 X183.149 Y158.358 E.00439
G1 X183.09 Y158.221 E.00468
G1 X183.09 Y51.779 E3.33741
G1 X183.149 Y51.642 E.00468
G1 X183.279 Y51.59 E.00439
G1 X193.721 Y51.59 E.3274
G1 X193.86 Y51.651 E.00476
G1 X193.888 Y51.723 E.00242
M204 S1000
G1 X194.296 Y51.882 F10800
;WIPE_START
G1 F8640
G1 X193.889 Y55.188 E-.8
;WIPE_END
G1 Z.6 F720
G1 X167.173 Y51.23 F10800
G1 Z.2 F720
G1 E.8 F2100
M204 S800
;TYPE:Perimeter
G1 F1200
G1 X167.279 Y51.213 E.00337
G1 X177.721 Y51.213 E.3274
G1 X177.991 Y51.281 E.00873
G1 X178.165 Y51.427 E.00712
G1 X178.268 Y51.634 E.00725
G1 X178.287 Y51.779 E.00459
G1 X178.287 Y158.221 E3.33741
G1 X178.222 Y158.486 E.00856
G1 X178.023 Y158.7 E.00916
G1 X177.79 Y158.783 E.00776
G1 X167.279 Y158.787 E.32956
G1 X167.009 Y158.719 E.00873
G1 X166.89 Y158.632 E.00462
G1 X166.778 Y158.486 E.00577
G1 X166.713 Y158.221 E.00856
G1 X166.713 Y51.779 E3.33741
G1 X166.778 Y51.514 E.00856
G1 X166.977 Y51.3 E.00916
G1 X167.117 Y51.25 E.00466
M204 S1000
G1 X167.279 Y51.59 F10800
M204 S800
;TYPE:External perimeter
G1 F1200
G1 X177.721 Y51.59 E.3274
G1 X177.869 Y51.661 E.00515
M73 P1 R237
G1 X177.91 Y51.779 E.00392
G1 X177.91 Y158.221 E3.33741
G1 X177.851 Y158.358 E.00468
M73 Q1 S242
G1 X177.721 Y158.41 E.00439
G1 X167.279 Y158.41 E.3274
G1 X167.149 Y158.358 E.00439
G1 X167.09 Y158.221 E.00468
G1 X167.09 Y51.779 E3.33741
G1 X167.149 Y51.642 E.00468
G1 X167.223 Y51.612 E.0025
M204 S1000
G1 X167.382 Y51.204 F10800
;WIPE_START
G1 F8640
G1 X170.688 Y51.605 E-.8
;WIPE_END
G1 Z.6 F720
G1 X151.173 Y51.23 F10800
G1 Z.2 F720
G1 E.8 F2100
M204 S800
;TYPE:Perimeter
G1 F1200
G1 X151.279 Y51.213 E.00337
G1 X161.721 Y51.213 E.3274
G1 X161.991 Y51.281 E.00873
G1 X162.165 Y51.427 E.00712
G1 X162.268 Y51.634 E.00725
G1 X162.287 Y51.779 E.00459
G1 X162.287 Y158.221 E3.33741
G1 X162.222 Y158.486 E.00856
G1 X162.023 Y158.7 E.00916
G1 X161.79 Y158.783 E.00776
G1 X151.279 Y158.787 E.32956
G1 X151.009 Y158.719 E.00873
G1 X150.89 Y158.632 E.00462
G1 X150.778 Y158.486 E.00577
G1 X150.713 Y158.221 E.00856
G1 X150.713 Y51.779 E3.33741
G1 X150.778 Y51.514 E.00856
G1 X150.977 Y51.3 E.00916
G1 X151.117 Y51.25 E.00466
M204 S1000
G1 X151.279 Y51.59 F10800
M204 S800
;TYPE:External perimeter
G1 F1200
G1 X161.721 Y51.59 E.3274
G1 X161.869 Y51.661 E.00515
G1 X161.91 Y51.779 E.00392
G1 X161.91 Y158.221 E3.33741
G1 X161.851 Y158.358 E.00468
G1 X161.721 Y158.41 E.00439
G1 X151.279 Y158.41 E.3274
G1 X151.149 Y158.358 E.00439
G1 X151.09 Y158.221 E.00468
G1 X151.09 Y51.779 E3.33741
G1 X151.149 Y51.642 E.00468
G1 X151.223 Y51.612 E.0025
M204 S1000
G1 X151.382 Y51.204 F10800
;WIPE_START
G1 F8640
G1 X154.688 Y51.605 E-.8
;WIPE_END
G1 Z.6 F720
G1 X145.808 Y51.235 F10800
G1 Z.2 F720
G1 E.8 F2100
M204 S800
;TYPE:Perimeter
G1 F1200
M73 Q1 S241
G1 X145.991 Y51.281 E.00592
G1 X146.165 Y51.427 E.00712
G1 X146.268 Y51.634 E.00725
G1 X146.287 Y51.779 E.00459
G1 X146.287 Y158.221 E3.33741
G1 X146.222 Y158.486 E.00856
M73 P1 R236
G1 X146.023 Y158.7 E.00916
G1 X145.79 Y158.783 E.00776
G1 X145.721 Y158.787 E.00217
G1 X135.21 Y158.783 E.32956
G1 X134.977 Y158.7 E.00776
G1 X134.778 Y158.486 E.00916
G1 X134.713 Y158.221 E.00856
G1 X134.713 Y51.779 E3.33741
G1 X134.778 Y51.514 E.00856
G1 X134.977 Y51.3 E.00916
G1 X135.21 Y51.217 E.00776
G1 X135.279 Y51.213 E.00217
G1 X145.749 Y51.22 E.32828
M204 S1000
G1 X145.721 Y51.59 F10800
M204 S800
;TYPE:External perimeter
G1 F1200
G1 X145.869 Y51.661 E.00515
G1 X145.91 Y51.779 E.00392
G1 X145.91 Y158.221 E3.33741
G1 X145.851 Y158.358 E.00468
G1 X145.721 Y158.41 E.00439
G1 X135.256 Y158.409 E.32812
G1 X135.131 Y158.339 E.00449
G1 X135.09 Y158.221 E.00392
G1 X135.09 Y51.779 E3.33741
G1 X135.149 Y51.642 E.00468
G1 X135.279 Y51.59 E.00439
G1 X145.661 Y51.59 E.32552
M204 S1000
G1 X145.842 Y51.478 F10800
;WIPE_START
G1 F8640
G1 X145.869 Y51.661 E-.05075
G1 X145.91 Y51.779 E-.02884
G1 X145.91 Y54.899 E-.72041
;WIPE_END
G1 Z.6 F720
G1 X129.8 Y158.767 F10800
G1 Z.2 F720
G1 E.8 F2100
M204 S800
;TYPE:Perimeter
G1 F1200
G1 X129.721 Y158.787 E.00256
G1 X119.279 Y158.787 E.3274
G1 X119.009 Y158.719 E.00873
G1 X118.835 Y158.573 E.00712
G1 X118.732 Y158.366 E.00725
G1 X118.713 Y158.221 E.00459
G1 X118.713 Y51.779 E3.33741
G1 X118.778 Y51.514 E.00856
G1 X118.977 Y51.3 E.00916
G1 X119.21 Y51.217 E.00776
G1 X129.721 Y51.213 E.32956
G1 X129.991 Y51.281 E.00873
G1 X130.165 Y51.427 E.00712
G1 X130.268 Y51.634 E.00725
G1 X130.287 Y51.779 E.00459
G1 X130.287 Y158.221 E3.33741
G1 X130.222 Y158.486 E.00856
G1 X130.023 Y158.7 E.00916
G1 X129.859 Y158.752 E.00539
M204 S1000
G1 X129.721 Y158.41 F10800
M204 S800
;TYPE:External perimeter
G1 F1200
G1 X119.279 Y158.41 E.3274
G1 X119.131 Y158.339 E.00515
G1 X119.09 Y158.221 E.00392
